!!!!SEGMENT: pl-cz--iii-656_stefani-jozef--o-salutaris-hostia.krn
!!!cenid: 18xx:1058
!!!COM: Stefani, Józef
!!!COM-rismID: pe30024097
!!!CDT: 1800/04/16-1876/03/19
!!!CNT: Polish
!!!OTL: O salutaris hostia
!!!PDT:
!!!AGN: Sacred
!!!SMS-siglum: PL-CZ
!!!SMS-shelfmark: III-656
!!!SMS-shelfwork: W
!!!SMS-variant:
!!!SMS-altvar:
!!!NIFC-rismSourceID: 300001271
!!!NIFC-rismChildID: 300001271
!!!NIFC-islandoraID: pl-cz:39639
!!!URL-pdf-islandora: https://repozytorium.nifc.pl/islandora/object/pl-cz%3A39639/datastream/PDF/view
!!!URL-scan:
!!!ONB-nifc:
!!!AIN: 1 alto 1 bass 1 cbass 1 clars 1 cor 1 fagot 1 flt 2 soprn 2 tenor 1 viola 1 viole 2 violn
!!!key: G
**kern	**dynam	**kern	**kern	**text	**kern	**text	**dynam	**kern	**text	**dynam	**kern	**text	**dynam	**kern	**text	**kern	**text	**dynam	**kern	**dynam	**kern	**dynam	**kern	**dynam	**kern	**dynam	**kern	**dynam	**kern	**dynam	**kern	**dynam
*part15	*part15	*part14	*part13	*part13	*part12	*part12	*part12	*part11	*part11	*part11	*part10	*part10	*part10	*part9	*part9	*part8	*part8	*part8	*part7	*part7	*part6	*part6	*part5	*part5	*part4	*part4	*part3	*part3	*part2	*part2	*part1	*part1
*staff15	*	*staff14	*staff13	*staff13	*staff12	*staff12	*	*staff11	*staff11	*	*staff10	*staff10	*	*staff9	*staff9	*staff8	*staff8	*	*staff7	*	*staff6	*	*staff5	*	*staff4	*	*staff3	*	*staff2	*	*staff1	*
*I"CBasso	*	*I"Violon	*I"Basso	*	*I"Tenori	*	*	*I"Tenori	*	*	*I"Alto	*	*	*I"Soprano 2o.	*	*I"Soprano 1o.	*	*	*I"Viola	*	*I"Violino 2	*	*I"Violino 1.	*	*I"Corni in C	*	*I"Fagotti	*	*I"Clarinetti in C.	*	*I"Flauto	*
*I'cb	*	*I'vlne	*I'B	*	*T	*	*	*I'T	*	*	*I'A	*	*	*I'S 2	*	*I'S 1	*	*	*I'vla	*	*I'vl 2	*	*I'vl 1	*	*I'cor in C	*	*I'fag	*	*I'cl in C	*	*I'fl	*
*Icbass	*	*Iviole	*Ibass	*	*Itenor	*	*	*Itenor	*	*	*Ialto	*	*	*Isoprn	*	*Isoprn	*	*	*Iviola	*	*Ivioln	*	*Ivioln	*	*Icor	*	*Ifagot	*	*Iclars	*	*Iflt	*
*ICstr	*	*ICstr	*ICvox	*	*ICvox	*	*	*ICvox	*	*	*ICvox	*	*	*ICvox	*	*ICvox	*	*	*ICstr	*	*ICstr	*	*ICstr	*	*ICbras	*	*ICww	*	*ICww	*	*ICww	*
*clefF4	*	*clefF4	*clefF4	*	*clefGv2	*	*	*clefGv2	*	*	*clefG2	*	*	*clefG2	*	*clefG2	*	*	*clefC3	*	*clefG2	*	*clefG2	*	*clefG2	*	*clefF4	*	*clefG2	*	*clefG2	*
*Trd0c0	*	*	*	*	*	*	*	*	*	*	*	*	*	*	*	*	*	*	*	*	*	*	*	*	*	*	*	*	*	*	*	*
*k[f#]	*	*k[f#]	*k[f#]	*	*k[f#]	*	*	*k[f#]	*	*	*k[f#]	*	*	*k[f#]	*	*k[f#]	*	*	*k[f#]	*	*k[f#]	*	*k[f#]	*	*k[f#]	*	*k[f#]	*	*k[f#]	*	*k[f#]	*
*G:	*	*G:	*G:	*	*G:	*	*	*G:	*	*	*G:	*	*	*G:	*	*G:	*	*	*G:	*	*G:	*	*G:	*	*G:	*	*G:	*	*G:	*	*G:	*
*M4/4	*	*M4/4	*M4/4	*	*M4/4	*	*	*M4/4	*	*	*M4/4	*	*	*M4/4	*	*M4/4	*	*	*M4/4	*	*M4/4	*	*M4/4	*	*M4/4	*	*M4/4	*	*M4/4	*	*M4/4	*
*met(c)	*	*met(c)	*met(c)	*	*met(c)	*	*	*met(c)	*	*	*met(c)	*	*	*met(c)	*	*met(c)	*	*	*met(c)	*	*met(c)	*	*met(c)	*	*met(c)	*	*met(c)	*	*met(c)	*	*met(c)	*
=1	=1	=1	=1	=1	=1	=1	=1	=1	=1	=1	=1	=1	=1	=1	=1	=1	=1	=1	=1	=1	=1	=1	=1	=1	=1	=1	=1	=1	=1	=1	=1	=1
*	*	*	*	*	*	*	*	*	*	*	*	*	*	*	*	*	*	*	*	*	*	*	*	*	*2\right	*	*	*	*	*	*	*
!LO:TX:b:i:t=Andantino	!	!	!	!	!	!	!	!	!	!	!	!	!	!	!	!	!	!	!	!	!	!	!	!	!	!	!	!	!	!	!LO:TX:a:i:t=Andantino	!
1r	.	1ryy	1r	.	1r	.	.	1r	.	.	1ryy	.	.	1r	.	1r	.	.	1r	.	1r	.	1r	.	2gg\ 2g\	fp	1r	.	1r	.	1r	.
!	!	!	!	!	!	!	!	!	!	!	!	!	!	!	!	!	!	!	!	!	!	!	!	!	!	!LO:HP:b	!	!	!	!	!	!
.	.	.	.	.	.	.	.	.	.	.	.	.	.	.	.	.	.	.	.	.	.	.	.	.	4.gg\ 4.g\	>	.	.	.	.	.	.
.	.	.	.	.	.	.	.	.	.	.	.	.	.	.	.	.	.	.	.	.	.	p	.	.	8gg\ 8g\	]	.	.	.	.	.	.
=2	=2	=2	=2	=2	=2	=2	=2	=2	=2	=2	=2	=2	=2	=2	=2	=2	=2	=2	=2	=2	=2	=2	=2	=2	=2	=2	=2	=2	=2	=2	=2	=2
*	*	*	*	*	*	*	*	*	*	*	*	*	*	*	*	*	*	*	*2\right	*	*	*	*	*	*	*	*2\right	*	*	*	*	*
!	!LO:DY:b:rj	!	!	!	!	!	!	!	!	!	!	!	!	!	!	!	!	!	!	!LO:DY:rj	!	!	!	!	!	!	!	!	!	!	!	!
2.GG/	p	1ryy	1r	.	1r	.	.	1r	.	.	1ryy	.	.	1r	.	1r	.	.	2.d 2.B\	p	2.fn 2.G/	.	1r	.	2.gg\ 2.g\	.	2.fn 2.d\	.	1r	.	16r	.
.	.	.	.	.	.	.	.	.	.	.	.	.	.	.	.	.	.	.	.	.	.	.	.	.	.	.	.	.	.	.	(>16fffn\LL	.
.	.	.	.	.	.	.	.	.	.	.	.	.	.	.	.	.	.	.	.	.	.	.	.	.	.	.	.	.	.	.	16ddd\	.
.	.	.	.	.	.	.	.	.	.	.	.	.	.	.	.	.	.	.	.	.	.	.	.	.	.	.	.	.	.	.	16bb\JJ	.
.	.	.	.	.	.	.	.	.	.	.	.	.	.	.	.	.	.	.	.	.	.	.	.	.	.	.	.	.	.	.	16gg\LL	.
.	.	.	.	.	.	.	.	.	.	.	.	.	.	.	.	.	.	.	.	.	.	.	.	.	.	.	.	.	.	.	16ffn\	.
.	.	.	.	.	.	.	.	.	.	.	.	.	.	.	.	.	.	.	.	.	.	.	.	.	.	.	.	.	.	.	16dd\	.
.	.	.	.	.	.	.	.	.	.	.	.	.	.	.	.	.	.	.	.	.	.	.	.	.	.	.	.	.	.	.	16b\JJ)	.
.	.	.	.	.	.	.	.	.	.	.	.	.	.	.	.	.	.	.	.	.	.	.	.	.	.	.	.	.	.	.	4g/	.
4r	.	.	.	.	.	.	.	.	.	.	.	.	.	.	.	.	.	.	4r	.	4r	.	.	.	4rb	.	4r	.	.	.	4r	.
=3	=3	=3	=3	=3	=3	=3	=3	=3	=3	=3	=3	=3	=3	=3	=3	=3	=3	=3	=3	=3	=3	=3	=3	=3	=3	=3	=3	=3	=3	=3	=3	=3
!	!	!	!	!	!	!	!	!	!	!	!	!	!	!	!	!	!	!	!	!	!	!	!	!	!	!LO:HP:b	!	!	!	!	!	!
!	!	!	!	!	!	!	!	!	!	!	!	!	!	!	!	!	!	!	!	!	!	!	!	!	!	!LO:DY:rj	!	!	!	!	!	!
1r	.	1ryy	1r	.	1r	.	.	1r	.	.	1ryy	.	.	1r	.	1r	.	.	1r	.	1r	.	1r	.	2gg\ 2g\	fp >	1r	.	1r	.	1r	.
.	.	.	.	.	.	.	.	.	.	.	.	.	.	.	.	.	.	.	.	.	.	.	.	.	4.gg\ 4.g\	.	.	.	.	.	.	.
.	.	.	.	.	.	.	.	.	.	.	.	.	.	.	.	.	.	.	.	.	.	.	.	.	8gg\ 8g\	]	.	.	.	.	.	.
=4	=4	=4	=4	=4	=4	=4	=4	=4	=4	=4	=4	=4	=4	=4	=4	=4	=4	=4	=4	=4	=4	=4	=4	=4	=4	=4	=4	=4	=4	=4	=4	=4
*	*	*	*	*	*	*	*	*	*	*	*	*	*	*	*	*	*	*	*	*	*	*	*	*	*	*	*^	*	*^	*	*	*
!	!	!	!	!	!	!	!	!	!	!	!	!	!	!	!	!	!	!	!LO:N:vis=2.	!	!	!	!	!	!	!	!	!	!	!	!	!	!	!
2C/	.	1ryy	1r	.	1r	.	.	1r	.	.	1ryy	.	.	1r	.	1r	.	.	2d\	.	2e 2G/	.	2r	.	2gg\ 2g\	.	2e 2c\	2.D\yy	.	2rb	2rb	.	16r	.
.	.	.	.	.	.	.	.	.	.	.	.	.	.	.	.	.	.	.	.	.	.	.	.	.	.	.	.	.	.	.	.	.	(>16g\LL	.
.	.	.	.	.	.	.	.	.	.	.	.	.	.	.	.	.	.	.	.	.	.	.	.	.	.	.	.	.	.	.	.	.	16cc\	.
.	.	.	.	.	.	.	.	.	.	.	.	.	.	.	.	.	.	.	.	.	.	.	.	.	.	.	.	.	.	.	.	.	16ee\JJ	.
!	!LO:DY:b	!	!	!	!	!	!	!	!	!	!	!	!	!	!	!	!	!	!	!	!	!	!	!	!	!	!	!	!	!	!	!	!	!
.	f	.	.	.	.	.	.	.	.	.	.	.	.	.	.	.	.	.	.	f	.	f	.	f	.	f	.	.	f	.	.	.	16gg\LL	.
.	.	.	.	.	.	.	.	.	.	.	.	.	.	.	.	.	.	.	.	.	.	.	.	.	.	.	.	.	.	.	.	.	16ccc\	.
.	.	.	.	.	.	.	.	.	.	.	.	.	.	.	.	.	.	.	.	.	.	.	.	.	.	.	.	.	.	.	.	.	16eee\	.
.	.	.	.	.	.	.	.	.	.	.	.	.	.	.	.	.	.	.	.	.	.	.	.	.	.	.	.	.	.	.	.	.	16ccc\JJ	.
4GG/	.	.	.	.	.	.	.	.	.	.	.	.	.	.	.	.	.	.	4d 4B\	.	4g 4G/	.	4gg 4b 4d\	.	4gg\ 4g\	.	4f#\	.	.	4dd/yy	4b\yy	.	4eee\)	.
4r	.	.	.	.	.	.	.	.	.	.	.	.	.	.	.	.	.	.	4r	.	4r	.	4r	.	4rb	.	8g\L	4rEE	.	(>[>4dd/	8b\L	.	4r	.
.	.	.	.	.	.	.	.	.	.	.	.	.	.	.	.	.	.	.	.	.	.	.	.	.	.	.	(>8f#\J	.	.	.	8a\J	.	.	.
=5	=5	=5	=5	=5	=5	=5	=5	=5	=5	=5	=5	=5	=5	=5	=5	=5	=5	=5	=5	=5	=5	=5	=5	=5	=5	=5	=5	=5	=5	=5	=5	=5	=5	=5
*	*	*	*	*	*	*	*	*	*	*	*	*	*	*	*	*	*	*	*	*	*	*	*	*	*	*	*	*	*	*	*2\right	*	*	*
1r	.	1ryy	1r	.	1r	.	.	1r	.	.	1ryy	.	.	1r	.	1r	.	.	1r	.	1r	.	1r	.	1r	.	4e\	1rGG	.	4dd/]	2.g\	.	1r	.
.	.	.	.	.	.	.	.	.	.	.	.	.	.	.	.	.	.	.	.	.	.	.	.	.	.	.	4e-X\	.	.	4cc/	.	.	.	.
.	.	.	.	.	.	.	.	.	.	.	.	.	.	.	.	.	.	.	.	.	.	.	.	.	.	.	4d\)	.	.	4b/	.	.	.	.
.	.	.	.	.	.	.	.	.	.	.	.	.	.	.	.	.	.	.	.	.	.	.	.	.	.	.	4c\	.	.	4a/)	4f#\	.	.	.
=6	=6	=6	=6	=6	=6	=6	=6	=6	=6	=6	=6	=6	=6	=6	=6	=6	=6	=6	=6	=6	=6	=6	=6	=6	=6	=6	=6	=6	=6	=6	=6	=6	=6	=6
*	*	*	*	*	*	*	*	*	*	*	*	*	*	*	*	*	*	*	*	*	*	*	*	*	*^	*	*	*	*	*	*	*	*	*
1r	.	1ryy	1r	.	1r	.	.	1r	.	.	1ryy	.	.	1r	.	1r	.	.	1r	.	1r	.	1r	.	2rb	2ff#\yy	.	2B\	2BBryy	.	2dd/	2g\	.	2r	.
*	*	*	*	*	*	*	*	*	*	*	*	*	*	*	*	*	*	*	*	*	*	*	*	*	*	*	*	*	*	*	*	*	*	*2\right	*
.	.	.	.	.	.	.	.	.	.	.	.	.	.	.	.	.	.	.	.	.	.	.	.	.	2ff#X/	2ff#X\	.	2B\ 2BB^<\	2ryy	.	2dd#Xt/	(>2a\	.	2ddd#X^t\	.
=7	=7	=7	=7	=7	=7	=7	=7	=7	=7	=7	=7	=7	=7	=7	=7	=7	=7	=7	=7	=7	=7	=7	=7	=7	=7	=7	=7	=7	=7	=7	=7	=7	=7	=7	=7
1r	.	1ryy	1r	.	1r	.	.	1r	.	.	1ryy	.	.	1r	.	1r	.	.	1r	.	1r	.	1r	.	(>2.gg/	2ee\	.	4c\ 4C\	4ryy	.	(>4ee/	4g\)	.	(>4eee\	.
.	.	.	.	.	.	.	.	.	.	.	.	.	.	.	.	.	.	.	.	.	.	.	.	.	.	.	.	4c#X\ 4C#X\	4ryy	.	4gg/	4b-X\	.	4ggg\	.
.	.	.	.	.	.	.	.	.	.	.	.	.	.	.	.	.	.	.	.	.	.	.	.	.	.	2dd\	.	2d\ 2D\	2ryy	.	4a/	2a\	.	4aa\	.
.	.	.	.	.	.	.	.	.	.	.	.	.	.	.	.	.	.	.	.	.	.	.	.	.	4ff#X/	.	.	.	.	.	4dd/)	.	.	4ddd\	.
*	*	*	*	*	*	*	*	*	*	*	*	*	*	*	*	*	*	*	*	*	*	*	*	*	*v	*v	*	*	*	*	*	*	*	*	*
=8	=8	=8	=8	=8	=8	=8	=8	=8	=8	=8	=8	=8	=8	=8	=8	=8	=8	=8	=8	=8	=8	=8	=8	=8	=8	=8	=8	=8	=8	=8	=8	=8	=8	=8
4r	.	1ryy	1r	.	1r	.	.	1r	.	.	1ryy	.	.	1r	.	1r	.	.	4r	.	4r	.	4r	.	4gg 4ee\)	.	4e\ 4E\	4ryy	.	4b/	4g\	.	4bb\)	.
!	!LO:DY:b	!	!	!	!	!	!	!	!	!	!	!	!	!	!	!	!	!	!	!	!	!	!	!	!	!	!	!	!	!	!	!	!	!
8.r	f	.	.	.	.	.	.	.	.	.	.	.	.	.	.	.	.	.	8.r	.	8.r	f	8.r	f	8.r	f	8.rD	8.rD	f	8.rb	4g\yy	.	8.r	.
!	!	!	!	!	!	!	!	!	!	!	!	!	!	!	!	!	!	!	!	!	!	!	!	!	!	!	!	!	!	!	!	!LO:DY:rj	!	!LO:DY:rj
16AA/	.	.	.	.	.	.	.	.	.	.	.	.	.	.	.	.	.	.	16e 16A\	.	16cc#X 16e/	.	16gg 16a\	.	16gg 16ee\	.	16A\ 16AA\	16ryy	.	16gg 16cc#X\	.	f	16ggg\	f
*	*	*	*	*	*	*	*	*	*	*	*	*	*	*	*	*	*	*	*	*	*	*	*2\right	*	*	*	*	*	*	*	*	*	*	*
2AA/	.	.	.	.	.	.	.	.	.	.	.	.	.	.	.	.	.	.	2e 2A\	.	2cc# 2e/	.	2gg 2a\	.	[>2gg [<2ee\	.	[>2A\ [<2AA\	2ryy	.	2gg 2cc#\	2g\yy	.	2ggg\	.
*	*	*	*	*	*	*	*	*	*	*	*	*	*	*	*	*	*	*	*	*	*	*	*	*	*	*	*	*	*	*v	*v	*	*	*
!!LO:PB:g=original
=9	=9	=9	=9	=9	=9	=9	=9	=9	=9	=9	=9	=9	=9	=9	=9	=9	=9	=9	=9	=9	=9	=9	=9	=9	=9	=9	=9	=9	=9	=9	=9	=9	=9
1r	.	1ryy	1r	.	1r	.	.	1r	.	.	1ryy	.	.	1r	.	1r	.	.	1r	.	1r	.	1r	.	1gg] 1ee]	.	1A]	1AA]	.	1r	.	(>16ggg\LL	.
.	.	.	.	.	.	.	.	.	.	.	.	.	.	.	.	.	.	.	.	.	.	.	.	.	.	.	.	.	.	.	.	16fff#\	.
.	.	.	.	.	.	.	.	.	.	.	.	.	.	.	.	.	.	.	.	.	.	.	.	.	.	.	.	.	.	.	.	16eee\	.
.	.	.	.	.	.	.	.	.	.	.	.	.	.	.	.	.	.	.	.	.	.	.	.	.	.	.	.	.	.	.	.	16ddd\JJ	.
.	.	.	.	.	.	.	.	.	.	.	.	.	.	.	.	.	.	.	.	.	.	.	.	.	.	.	.	.	.	.	.	16ccc#X\LL	.
.	.	.	.	.	.	.	.	.	.	.	.	.	.	.	.	.	.	.	.	.	.	.	.	.	.	.	.	.	.	.	.	16bb\	.
.	.	.	.	.	.	.	.	.	.	.	.	.	.	.	.	.	.	.	.	.	.	.	.	.	.	.	.	.	.	.	.	16aa\	.
.	.	.	.	.	.	.	.	.	.	.	.	.	.	.	.	.	.	.	.	.	.	.	.	.	.	.	.	.	.	.	.	16gg\JJ	.
.	.	.	.	.	.	.	.	.	.	.	.	.	.	.	.	.	.	.	.	.	.	.	.	.	.	.	.	.	.	.	.	16ff#\LL	.
.	.	.	.	.	.	.	.	.	.	.	.	.	.	.	.	.	.	.	.	.	.	.	.	.	.	.	.	.	.	.	.	16ee\	.
.	.	.	.	.	.	.	.	.	.	.	.	.	.	.	.	.	.	.	.	.	.	.	.	.	.	.	.	.	.	.	.	16dd\	.
.	.	.	.	.	.	.	.	.	.	.	.	.	.	.	.	.	.	.	.	.	.	.	.	.	.	.	.	.	.	.	.	16cc#X\JJ	.
.	.	.	.	.	.	.	.	.	.	.	.	.	.	.	.	.	.	.	.	.	.	.	.	.	.	.	.	.	.	.	.	16b\LL	.
.	.	.	.	.	.	.	.	.	.	.	.	.	.	.	.	.	.	.	.	.	.	.	.	.	.	.	.	.	.	.	.	16a\	.
.	.	.	.	.	.	.	.	.	.	.	.	.	.	.	.	.	.	.	.	.	.	.	.	.	.	.	.	.	.	.	.	16b\	.
.	.	.	.	.	.	.	.	.	.	.	.	.	.	.	.	.	.	.	.	.	.	.	.	.	.	.	.	.	.	.	.	16cc#\JJ)	.
*	*	*	*	*	*	*	*	*	*	*	*	*	*	*	*	*	*	*	*	*	*	*	*	*	*	*	*v	*v	*	*	*	*	*
=10	=10	=10	=10	=10	=10	=10	=10	=10	=10	=10	=10	=10	=10	=10	=10	=10	=10	=10	=10	=10	=10	=10	=10	=10	=10	=10	=10	=10	=10	=10	=10	=10
1r	.	1ryy	1r	.	1r	.	.	1r	.	.	1ryy	.	.	1r	.	1r	.	.	1r	.	1r	.	1r	.	[>1ff#X [>1dd	.	[>1A [<1D	.	1r	.	[>2ddT\	.
.	.	.	.	.	.	.	.	.	.	.	.	.	.	.	.	.	.	.	.	.	.	.	.	.	.	.	.	.	.	.	8dd\L]	.
.	.	.	.	.	.	.	.	.	.	.	.	.	.	.	.	.	.	.	.	.	.	.	.	.	.	.	.	.	.	.	(>16cc#X\L	.
.	.	.	.	.	.	.	.	.	.	.	.	.	.	.	.	.	.	.	.	.	.	.	.	.	.	.	.	.	.	.	16dd\JJ)	.
.	.	.	.	.	.	.	.	.	.	.	.	.	.	.	.	.	.	.	.	.	.	.	.	.	.	.	.	.	.	.	(>16ee#X\LL	.
.	.	.	.	.	.	.	.	.	.	.	.	.	.	.	.	.	.	.	.	.	.	.	.	.	.	.	.	.	.	.	16ff#\)	.
.	.	.	.	.	.	.	.	.	.	.	.	.	.	.	.	.	.	.	.	.	.	.	.	.	.	.	.	.	.	.	(>16gg#X\	.
.	.	.	.	.	.	.	.	.	.	.	.	.	.	.	.	.	.	.	.	.	.	.	.	.	.	.	.	.	.	.	16aa\JJ)	.
=11	=11	=11	=11	=11	=11	=11	=11	=11	=11	=11	=11	=11	=11	=11	=11	=11	=11	=11	=11	=11	=11	=11	=11	=11	=11	=11	=11	=11	=11	=11	=11	=11
2r	.	1ryy	2r	.	2r	.	.	2r	.	.	2ryy	.	.	2r	.	2r	.	.	2r	.	2r	.	2r	.	2ff#X] 2dd\]	.	2A] 2D\]	.	2r	.	8ddd'\L	.
.	.	.	.	.	.	.	.	.	.	.	.	.	.	.	.	.	.	.	.	.	.	.	.	.	.	.	.	.	.	.	(>16ccc#X\L	.
.	.	.	.	.	.	.	.	.	.	.	.	.	.	.	.	.	.	.	.	.	.	.	.	.	.	.	.	.	.	.	16ddd\JJ)	.
.	.	.	.	.	.	.	.	.	.	.	.	.	.	.	.	.	.	.	.	.	.	.	.	.	.	.	.	.	.	.	(>16fff#\LL	.
.	.	.	.	.	.	.	.	.	.	.	.	.	.	.	.	.	.	.	.	.	.	.	.	.	.	.	.	.	.	.	16ddd\)	.
.	.	.	.	.	.	.	.	.	.	.	.	.	.	.	.	.	.	.	.	f	.	f	.	f	.	f	.	f	.	f	16aa'\	.
.	.	.	.	.	.	.	.	.	.	.	.	.	.	.	.	.	.	.	.	.	.	.	.	.	.	.	.	.	.	.	16ff#'\JJ	.
4.D;>\	.	.	2r;>	.	2r;>	.	.	2r;>	.	.	2ryy	.	.	2r;	.	2r;>	.	.	4.a 4.d;>\	.	4.f# 4.A;>/	.	4.dd 4.f#;>/	.	4.ff# 4.dd;>\	.	4.A 4.D;>\	.	4.dd 4.f#;/	.	4.dd;>\	.
8r	.	.	.	.	.	.	.	.	.	.	.	.	.	.	.	.	.	.	8r	.	8r	.	8r	.	8r	.	8r	.	8r	.	8ddd\	.
=12	=12	=12	=12	=12	=12	=12	=12	=12	=12	=12	=12	=12	=12	=12	=12	=12	=12	=12	=12	=12	=12	=12	=12	=12	=12	=12	=12	=12	=12	=12	=12	=12
!LO:TX:b:i:t=pizzi	!	!	!	!	!	!	!	!	!	!	!	!	!	!	!	!	!	!	!	!	!	!	!	!	!	!	!	!	!	!	!	!
8D\	.	1ryy	1r	.	1r	.	.	1r	.	.	1ryy	.	.	1r	.	1r	.	.	8r	.	8r	.	8r	.	1r	.	1r	.	1r	.	16cccn\LL	.
.	.	.	.	.	.	.	.	.	.	.	.	.	.	.	.	.	.	.	.	.	.	.	.	.	.	.	.	.	.	.	16ddd\	.
!	!	!	!	!	!	!	!	!	!	!	!	!	!	!	!	!	!	!	!LO:TX:b:i:t=pizzi	!	!LO:TX:b:i:t=pizzi	!	!LO:TX:b:i:t=pizzi	!	!	!	!	!	!	!	!	!
8r	.	.	.	.	.	.	.	.	.	.	.	.	.	.	.	.	.	.	8A/	.	8A/	.	8f#/	.	.	.	.	.	.	.	16aa\	.
.	.	.	.	.	.	.	.	.	.	.	.	.	.	.	.	.	.	.	.	.	.	.	.	.	.	.	.	.	.	.	16ddd\JJ	.
*rep	*	*	*	*	*	*	*	*	*	*	*	*	*	*	*	*	*	*	*rep	*	*rep	*	*rep	*	*	*	*	*	*	*	*	*
8D\yy	.	.	.	.	.	.	.	.	.	.	.	.	.	.	.	.	.	.	8ryy	.	8ryy	.	8ryy	.	.	.	.	.	.	.	16ff#\LL	.
.	.	.	.	.	.	.	.	.	.	.	.	.	.	.	.	.	.	.	.	.	.	.	.	.	.	.	.	.	.	.	16ddd\	.
8ryy	.	.	.	.	.	.	.	.	.	.	.	.	.	.	.	.	.	.	8A/yy	.	8A/yy	.	8f#/yy	.	.	.	.	.	.	.	16dd\	.
.	.	.	.	.	.	.	.	.	.	.	.	.	.	.	.	.	.	.	.	.	.	.	.	.	.	.	.	.	.	.	16ddd\JJ	.
*Xrep	*	*	*	*	*	*	*	*	*	*	*	*	*	*	*	*	*	*	*Xrep	*	*Xrep	*	*Xrep	*	*	*	*	*	*	*	*	*
*rep	*	*	*	*	*	*	*	*	*	*	*	*	*	*	*	*	*	*	*rep	*	*rep	*	*rep	*	*	*	*	*	*	*	*	*
8D\yy	.	.	.	.	.	.	.	.	.	.	.	.	.	.	.	.	.	.	8ryy	.	8ryy	.	8ryy	.	.	.	.	.	.	.	16cc\LL	.
.	.	.	.	.	.	.	.	.	.	.	.	.	.	.	.	.	.	.	.	.	.	.	.	.	.	.	.	.	.	.	16ddd\	.
8ryy	.	.	.	.	.	.	.	.	.	.	.	.	.	.	.	.	.	.	8A/yy	.	8A/yy	.	8f#/yy	.	.	.	.	.	.	.	16a\	.
.	.	.	.	.	.	.	.	.	.	.	.	.	.	.	.	.	.	.	.	.	.	.	.	.	.	.	.	.	.	.	16ddd\JJ	.
*Xrep	*	*	*	*	*	*	*	*	*	*	*	*	*	*	*	*	*	*	*Xrep	*	*Xrep	*	*Xrep	*	*	*	*	*	*	*	*	*
*rep	*	*	*	*	*	*	*	*	*	*	*	*	*	*	*	*	*	*	*rep	*	*rep	*	*rep	*	*	*	*	*	*	*	*	*
8D\yy	.	.	.	.	.	.	.	.	.	.	.	.	.	.	.	.	.	.	8ryy	.	8ryy	.	8ryy	.	.	.	.	.	.	.	16f#\LL	.
.	.	.	.	.	.	.	.	.	.	.	.	.	.	.	.	.	.	.	.	.	.	.	.	.	.	.	.	.	.	.	16ddd\	.
8ryy	.	.	.	.	.	.	.	.	.	.	.	.	.	.	.	.	.	.	8A/yy	.	8A/yy	.	8f#/yy	.	.	.	.	.	.	.	16d\	.
.	.	.	.	.	.	.	.	.	.	.	.	.	.	.	.	.	.	.	.	.	.	.	.	.	.	.	.	.	.	.	16ddd\JJ	.
*Xrep	*	*	*	*	*	*	*	*	*	*	*	*	*	*	*	*	*	*	*Xrep	*	*Xrep	*	*Xrep	*	*	*	*	*	*	*	*	*
!!LO:PB:g=original
=13	=13	=13	=13	=13	=13	=13	=13	=13	=13	=13	=13	=13	=13	=13	=13	=13	=13	=13	=13	=13	=13	=13	=13	=13	=13	=13	=13	=13	=13	=13	=13	=13
8G\	.	1ryy	1r	.	1r	.	.	1r	.	.	1ryy	.	.	1r	.	1r	.	.	8r	.	8r	.	8r	.	1r	.	1r	.	1r	.	(>16bb\LL	.
.	.	.	.	.	.	.	.	.	.	.	.	.	.	.	.	.	.	.	.	.	.	.	.	.	.	.	.	.	.	.	16gg\)	.
8r	.	.	.	.	.	.	.	.	.	.	.	.	.	.	.	.	.	.	8G/	.	8d 8B/	.	8g/	.	.	.	.	.	.	.	16bb'\	.
.	.	.	.	.	.	.	.	.	.	.	.	.	.	.	.	.	.	.	.	.	.	.	.	.	.	.	.	.	.	.	16ddd'\JJ	.
*rep	*	*	*	*	*	*	*	*	*	*	*	*	*	*	*	*	*	*	*rep	*	*rep	*	*rep	*	*	*	*	*	*	*	*	*
8G\yy	.	.	.	.	.	.	.	.	.	.	.	.	.	.	.	.	.	.	8ryy	.	8ryy	.	8ryy	.	.	.	.	.	.	.	(>16ggg\LL	.
.	.	.	.	.	.	.	.	.	.	.	.	.	.	.	.	.	.	.	.	.	.	.	.	.	.	.	.	.	.	.	16fff#\)	.
8ryy	.	.	.	.	.	.	.	.	.	.	.	.	.	.	.	.	.	.	8G/yy	.	8d 8B/yy	.	8g/yy	.	.	.	.	.	.	.	16eee'\	.
.	.	.	.	.	.	.	.	.	.	.	.	.	.	.	.	.	.	.	.	.	.	.	.	.	.	.	.	.	.	.	16ddd'\JJ	.
*Xrep	*	*	*	*	*	*	*	*	*	*	*	*	*	*	*	*	*	*	*Xrep	*	*Xrep	*	*Xrep	*	*	*	*	*	*	*	*	*
*rep	*	*	*	*	*	*	*	*	*	*	*	*	*	*	*	*	*	*	*rep	*	*rep	*	*rep	*	*	*	*	*	*	*	*	*
8G\yy	.	.	.	.	.	.	.	.	.	.	.	.	.	.	.	.	.	.	8ryy	.	8ryy	.	8ryy	.	.	.	.	.	.	.	(>16eee\LL	.
.	.	.	.	.	.	.	.	.	.	.	.	.	.	.	.	.	.	.	.	.	.	.	.	.	.	.	.	.	.	.	16ddd\)	.
8ryy	.	.	.	.	.	.	.	.	.	.	.	.	.	.	.	.	.	.	8G/yy	.	8d 8B/yy	.	8g/yy	.	.	.	.	.	.	.	16ccc'\	.
.	.	.	.	.	.	.	.	.	.	.	.	.	.	.	.	.	.	.	.	.	.	.	.	.	.	.	.	.	.	.	16bb'\JJ	.
*Xrep	*	*	*	*	*	*	*	*	*	*	*	*	*	*	*	*	*	*	*Xrep	*	*Xrep	*	*Xrep	*	*	*	*	*	*	*	*	*
*rep	*	*	*	*	*	*	*	*	*	*	*	*	*	*	*	*	*	*	*rep	*	*rep	*	*rep	*	*	*	*	*	*	*	*	*
8G\yy	.	.	.	.	.	.	.	.	.	.	.	.	.	.	.	.	.	.	8ryy	.	8ryy	.	8ryy	.	.	.	.	.	.	.	(>16ccc\LL	.
.	.	.	.	.	.	.	.	.	.	.	.	.	.	.	.	.	.	.	.	.	.	.	.	.	.	.	.	.	.	.	16bb\)	.
8ryy	.	.	.	.	.	.	.	.	.	.	.	.	.	.	.	.	.	.	8G/yy	.	8d 8B/yy	.	8g/yy	.	.	.	.	.	.	.	16aa'\	.
.	.	.	.	.	.	.	.	.	.	.	.	.	.	.	.	.	.	.	.	.	.	.	.	.	.	.	.	.	.	.	16gg'\JJ	.
*Xrep	*	*	*	*	*	*	*	*	*	*	*	*	*	*	*	*	*	*	*Xrep	*	*Xrep	*	*Xrep	*	*	*	*	*	*	*	*	*
=14	=14	=14	=14	=14	=14	=14	=14	=14	=14	=14	=14	=14	=14	=14	=14	=14	=14	=14	=14	=14	=14	=14	=14	=14	=14	=14	=14	=14	=14	=14	=14	=14
8D\	.	1ryy	1r	.	1r	.	.	1r	.	.	1ryy	.	.	1r	.	1r	.	.	8r	.	8r	.	8r	.	1r	.	1r	.	1r	.	16cccn'\LL	.
.	.	.	.	.	.	.	.	.	.	.	.	.	.	.	.	.	.	.	.	.	.	.	.	.	.	.	.	.	.	.	16ddd'\	.
8r	.	.	.	.	.	.	.	.	.	.	.	.	.	.	.	.	.	.	8A/	.	8d 8c/	.	8f#/	.	.	.	.	.	.	.	16aa'\	.
.	.	.	.	.	.	.	.	.	.	.	.	.	.	.	.	.	.	.	.	.	.	.	.	.	.	.	.	.	.	.	16ddd'\JJ	.
*rep	*	*	*	*	*	*	*	*	*	*	*	*	*	*	*	*	*	*	*rep	*	*rep	*	*rep	*	*	*	*	*	*	*	*	*
8D\yy	.	.	.	.	.	.	.	.	.	.	.	.	.	.	.	.	.	.	8ryy	.	8ryy	.	8ryy	.	.	.	.	.	.	.	16ff#'\LL	.
.	.	.	.	.	.	.	.	.	.	.	.	.	.	.	.	.	.	.	.	.	.	.	.	.	.	.	.	.	.	.	16ddd'\	.
*	*	*	*	*	*	*	*	*	*	*	*	*	*	*	*	*	*	*	*Xrep	*	*	*	*Xrep	*	*	*	*	*	*	*	*	*
8ryy	.	.	.	.	.	.	.	.	.	.	.	.	.	.	.	.	.	.	8A/yy	.	8d 8c/	.	8f#/yy	.	.	.	.	.	.	.	16dd'\	.
.	.	.	.	.	.	.	.	.	.	.	.	.	.	.	.	.	.	.	.	.	.	.	.	.	.	.	.	.	.	.	16ddd'\JJ	.
*Xrep	*	*	*	*	*	*	*	*	*	*	*	*	*	*	*	*	*	*	*	*	*Xrep	*	*	*	*	*	*	*	*	*	*	*
*rep	*	*	*	*	*	*	*	*	*	*	*	*	*	*	*	*	*	*	*rep	*	*rep	*	*rep	*	*	*	*	*	*	*	*	*
8D\yy	.	.	.	.	.	.	.	.	.	.	.	.	.	.	.	.	.	.	8ryy	.	8r	.	8ryy	.	.	.	.	.	.	.	16cc'\LL	.
.	.	.	.	.	.	.	.	.	.	.	.	.	.	.	.	.	.	.	.	.	.	.	.	.	.	.	.	.	.	.	16ddd'\	.
*	*	*	*	*	*	*	*	*	*	*	*	*	*	*	*	*	*	*	*Xrep	*	*	*	*Xrep	*	*	*	*	*	*	*	*	*
8ryy	.	.	.	.	.	.	.	.	.	.	.	.	.	.	.	.	.	.	8A/yy	.	8d 8c/	.	8f#/yy	.	.	.	.	.	.	.	16a'\	.
.	.	.	.	.	.	.	.	.	.	.	.	.	.	.	.	.	.	.	.	.	.	.	.	.	.	.	.	.	.	.	16ddd'\JJ	.
*Xrep	*	*	*	*	*	*	*	*	*	*	*	*	*	*	*	*	*	*	*	*	*Xrep	*	*	*	*	*	*	*	*	*	*	*
*rep	*	*	*	*	*	*	*	*	*	*	*	*	*	*	*	*	*	*	*rep	*	*rep	*	*rep	*	*	*	*	*	*	*	*	*
8D\yy	.	.	.	.	.	.	.	.	.	.	.	.	.	.	.	.	.	.	8ryy	.	8r	.	8ryy	.	.	.	.	.	.	.	16f#'\LL	.
.	.	.	.	.	.	.	.	.	.	.	.	.	.	.	.	.	.	.	.	.	.	.	.	.	.	.	.	.	.	.	16ddd'\	.
*	*	*	*	*	*	*	*	*	*	*	*	*	*	*	*	*	*	*	*Xrep	*	*	*	*Xrep	*	*	*	*	*	*	*	*	*
8ryy	.	.	.	.	.	.	.	.	.	.	.	.	.	.	.	.	.	.	8A/yy	.	8d 8c/	.	8f#/yy	.	.	.	.	.	.	.	16d'\	.
.	.	.	.	.	.	.	.	.	.	.	.	.	.	.	.	.	.	.	.	.	.	.	.	.	.	.	.	.	.	.	16ddd'\JJ	.
*Xrep	*	*	*	*	*	*	*	*	*	*	*	*	*	*	*	*	*	*	*	*	*Xrep	*	*	*	*	*	*	*	*	*	*	*
=15	=15	=15	=15	=15	=15	=15	=15	=15	=15	=15	=15	=15	=15	=15	=15	=15	=15	=15	=15	=15	=15	=15	=15	=15	=15	=15	=15	=15	=15	=15	=15	=15
8G\	.	1ryy	1r	.	1r	.	.	1r	.	.	1ryy	.	.	1r	.	1r	.	.	8r	.	8r	.	8r	.	1r	.	1r	.	1r	.	(>16bb\LL	.
.	.	.	.	.	.	.	.	.	.	.	.	.	.	.	.	.	.	.	.	.	.	.	.	.	.	.	.	.	.	.	16gg\)	.
8r	.	.	.	.	.	.	.	.	.	.	.	.	.	.	.	.	.	.	8G/	.	8d 8B/	.	8g/	.	.	.	.	.	.	.	16bb'\	.
.	.	.	.	.	.	.	.	.	.	.	.	.	.	.	.	.	.	.	.	.	.	.	.	.	.	.	.	.	.	.	16ddd'\JJ	.
*rep	*	*	*	*	*	*	*	*	*	*	*	*	*	*	*	*	*	*	*rep	*	*rep	*	*rep	*	*	*	*	*	*	*	*	*
8G\yy	.	.	.	.	.	.	.	.	.	.	.	.	.	.	.	.	.	.	8ryy	.	8ryy	.	8ryy	.	.	.	.	.	.	.	(>16ggg\LL	.
.	.	.	.	.	.	.	.	.	.	.	.	.	.	.	.	.	.	.	.	.	.	.	.	.	.	.	.	.	.	.	16fff#\)	.
8ryy	.	.	.	.	.	.	.	.	.	.	.	.	.	.	.	.	.	.	8G/yy	.	8d 8B/yy	.	8g/yy	.	.	.	.	.	.	.	16eee'\	.
.	.	.	.	.	.	.	.	.	.	.	.	.	.	.	.	.	.	.	.	.	.	.	.	.	.	.	.	.	.	.	16ddd'\JJ	.
*Xrep	*	*	*	*	*	*	*	*	*	*	*	*	*	*	*	*	*	*	*Xrep	*	*Xrep	*	*Xrep	*	*	*	*	*	*	*	*	*
*rep	*	*	*	*	*	*	*	*	*	*	*	*	*	*	*	*	*	*	*rep	*	*rep	*	*rep	*	*	*	*	*	*	*	*	*
8G\yy	.	.	.	.	.	.	.	.	.	.	.	.	.	.	.	.	.	.	8ryy	.	8ryy	.	8ryy	.	.	.	.	.	.	.	(16ccc#X\LL	.
.	.	.	.	.	.	.	.	.	.	.	.	.	.	.	.	.	.	.	.	.	.	.	.	.	.	.	.	.	.	.	16ddd\)	.
8ryy	.	.	.	.	.	.	.	.	.	.	.	.	.	.	.	.	.	.	8G/yy	.	8d 8B/yy	.	8g/yy	.	.	.	.	.	.	.	16eee'\	.
.	.	.	.	.	.	.	.	.	.	.	.	.	.	.	.	.	.	.	.	.	.	.	.	.	.	.	.	.	.	.	16ddd'\JJ	.
*Xrep	*	*	*	*	*	*	*	*	*	*	*	*	*	*	*	*	*	*	*Xrep	*	*Xrep	*	*Xrep	*	*	*	*	*	*	*	*	*
*rep	*	*	*	*	*	*	*	*	*	*	*	*	*	*	*	*	*	*	*rep	*	*rep	*	*rep	*	*	*	*	*	*	*	*	*
8G\yy	.	.	.	.	.	.	.	.	.	.	.	.	.	.	.	.	.	.	8ryy	.	8ryy	.	8ryy	.	.	.	.	.	.	.	16cccn\LL	.
.	.	.	.	.	.	.	.	.	.	.	.	.	.	.	.	.	.	.	.	.	.	.	.	.	.	.	.	.	.	.	16bb\	.
8ryy	.	.	.	.	.	.	.	.	.	.	.	.	.	.	.	.	.	.	8G/yy	.	8d 8B/yy	.	8g/yy	.	.	f	.	.	.	f	16aa\	.
.	.	.	.	.	.	.	.	.	.	.	.	.	.	.	.	.	.	.	.	f	.	f	.	f	.	.	.	.	.	.	16gg\JJ	.
*Xrep	*	*	*	*	*	*	*	*	*	*	*	*	*	*	*	*	*	*	*Xrep	*	*Xrep	*	*Xrep	*	*	*	*	*	*	*	*	*
=16	=16	=16	=16	=16	=16	=16	=16	=16	=16	=16	=16	=16	=16	=16	=16	=16	=16	=16	=16	=16	=16	=16	=16	=16	=16	=16	=16	=16	=16	=16	=16	=16
!LO:TX:b:i:t=arco	!	!	!	!	!	!	!	!	!	!	!	!	!	!	!	!	!	!	!	!	!	!	!	!	!	!	!	!	!	!	!	!
!	!LO:DY:b:rj	!	!	!	!	!	!	!	!	!	!	!	!	!	!	!	!	!	!LO:TX:b:i:t=arco	!	!LO:TX:b:i:t=arco	!	!LO:TX:b:i:t=arco	!	!	!	!	!	!	!	!	!
8.BB/L	f	1ryy	1r	.	1r	.	.	1r	.	.	1ryy	.	.	1r	.	1r	.	.	8.B\L	.	8.ddL 8.g\	.	8.gg\L	.	8.ddL 8.g\	.	8.BL 8.BB\	.	8.ggL 8.dd\	.	8.ggg\L	.
16BB/Jk	.	.	.	.	.	.	.	.	.	.	.	.	.	.	.	.	.	.	16B\Jk	.	16ddJk 16g\	.	16gg\Jk	.	16ddJk 16g\	.	16BJk 16BB\	.	16ggJk 16dd\	.	16ggg\Jk	.
4BB/	.	.	.	.	.	.	.	.	.	.	.	.	.	.	.	.	.	.	4B\	.	4dd 4g\	.	4gg\	.	4dd 4g\	.	4B 4BB\	.	4gg 4dd\	.	4ggg\	.
2r	.	.	.	.	.	.	.	.	.	.	.	.	.	.	.	.	.	.	2r	.	2r	.	2r	.	2r	.	2r	.	2r	.	(>16ggg\LL	.
.	.	.	.	.	.	.	.	.	.	.	.	.	.	.	.	.	.	.	.	.	.	.	.	.	.	.	.	.	.	.	16fff#\)	.
.	.	.	.	.	.	.	.	.	.	.	.	.	.	.	.	.	.	.	.	.	.	.	.	.	.	.	.	.	.	.	16eee'\	.
.	.	.	.	.	.	.	.	.	.	.	.	.	.	.	.	.	.	.	.	.	.	.	.	.	.	.	.	.	.	.	16ddd'\JJ	.
.	.	.	.	.	.	.	.	.	.	.	.	.	.	.	.	.	.	.	.	.	.	.	.	.	.	.	.	.	.	.	16ccc'\LL	.
.	.	.	.	.	.	.	.	.	.	.	.	.	.	.	.	.	.	.	.	.	.	.	.	.	.	.	.	.	.	.	16bb'\	.
.	.	.	.	.	.	.	.	.	.	.	.	.	.	.	.	.	.	.	.	.	.	.	.	.	.	.	.	.	.	.	16aa'\	.
.	.	.	.	.	.	.	.	.	.	.	.	.	.	.	.	.	.	.	.	.	.	.	.	.	.	.	.	.	.	.	16gg'\JJ	.
!!LO:PB:g=original
=17	=17	=17	=17	=17	=17	=17	=17	=17	=17	=17	=17	=17	=17	=17	=17	=17	=17	=17	=17	=17	=17	=17	=17	=17	=17	=17	=17	=17	=17	=17	=17	=17
!	!LO:DY:b:rj	!	!	!	!	!	!	!	!	!	!	!	!	!	!	!	!	!	!	!	!	!	!	!	!	!	!	!	!	!	!	!
8C/	p	1ryy	1r	.	1r	.	.	1r	.	.	1ryy	.	.	1r	.	1r	.	.	8r	.	8r	.	8r	.	1r	.	1r	.	1r	.	(>16ff#\LL	.
.	.	.	.	.	.	.	.	.	.	.	.	.	.	.	.	.	.	.	.	.	.	.	.	p	.	.	.	.	.	.	16ee\	.
8r	.	.	.	.	.	.	.	.	.	.	.	.	.	.	.	.	.	.	8c\	.	8e 8c/	.	8a/	.	.	.	.	.	.	.	16dd#X\	.
.	.	.	.	.	.	.	.	.	.	.	.	.	.	.	.	.	.	.	.	.	.	.	.	.	.	.	.	.	.	.	16ee\JJ)	.
*rep	*	*	*	*	*	*	*	*	*	*	*	*	*	*	*	*	*	*	*rep	*	*rep	*	*rep	*	*	*	*	*	*	*	*	*
8C/yy	.	.	.	.	.	.	.	.	.	.	.	.	.	.	.	.	.	.	8ryy	.	8ryy	.	8ryy	.	.	.	.	.	.	.	(>16bb\LL	.
.	.	.	.	.	.	.	.	.	.	.	.	.	.	.	.	.	.	.	.	.	.	.	.	.	.	.	.	.	.	.	16aa\	.
8ryy	.	.	.	.	.	.	.	.	.	.	.	.	.	.	.	.	.	.	8c\yy	.	8e 8c/yy	.	8a/yy	.	.	.	.	.	.	.	16gg#X\	.
.	.	.	.	.	.	.	.	.	.	.	.	.	.	.	.	.	.	.	.	.	.	.	.	.	.	.	.	.	.	.	16aa\JJ)	.
*Xrep	*	*	*	*	*	*	*	*	*	*	*	*	*	*	*	*	*	*	*Xrep	*	*Xrep	*	*Xrep	*	*	*	*	*	*	*	*	*
*rep	*	*	*	*	*	*	*	*	*	*	*	*	*	*	*	*	*	*	*rep	*	*rep	*	*rep	*	*	*	*	*	*	*	*	*
8C/yy	.	.	.	.	.	.	.	.	.	.	.	.	.	.	.	.	.	.	8ryy	.	8ryy	.	8ryy	.	.	.	.	.	.	.	(>16ddd\LL	.
.	.	.	.	.	.	.	.	.	.	.	.	.	.	.	.	.	.	.	.	.	.	.	.	.	.	.	.	.	.	.	16ccc\	.
8ryy	.	.	.	.	.	.	.	.	.	.	.	.	.	.	.	.	.	.	8c\yy	.	8e 8c/yy	.	8a/yy	.	.	.	.	.	.	.	16bb\	.
.	.	.	.	.	.	.	.	.	.	.	.	.	.	.	.	.	.	.	.	.	.	.	.	.	.	.	.	.	.	.	16ccc\JJ)	.
*Xrep	*	*	*	*	*	*	*	*	*	*	*	*	*	*	*	*	*	*	*Xrep	*	*Xrep	*	*Xrep	*	*	*	*	*	*	*	*	*
*rep	*	*	*	*	*	*	*	*	*	*	*	*	*	*	*	*	*	*	*rep	*	*rep	*	*rep	*	*	*	*	*	*	*	*	*
!	!	!	!	!	!	!	!	!	!	!	!	!	!	!	!	!	!	!	!	!	!	!	!	!	!	!	!	!	!	!	!LO:TUP:a	!
8C/yy	.	.	.	.	.	.	.	.	.	.	.	.	.	.	.	.	.	.	8ryy	.	8ryy	.	8ryy	.	.	.	.	.	.	.	(>24fff#\LL	.
.	.	.	.	.	.	.	.	.	.	.	.	.	.	.	.	.	.	.	.	.	.	.	.	.	.	.	.	.	.	.	24eee\	.
.	.	.	.	.	.	.	.	.	.	.	.	.	.	.	.	.	.	.	.	.	.	.	.	.	.	.	.	.	.	.	24ddd#X\	.
8ryy	.	.	.	.	.	.	.	.	.	.	.	.	.	.	.	.	.	.	8c\yy	.	8e 8c/yy	.	8a/yy	.	.	.	.	.	.	.	24eee\	.
.	.	.	.	.	.	.	.	.	.	.	.	.	.	.	.	.	.	.	.	.	.	.	.	.	.	.	.	.	.	.	24fff#\	.
.	.	.	.	.	.	.	.	.	.	.	.	.	.	.	.	.	.	.	.	.	.	.	.	.	.	.	.	.	.	.	24ggg\JJ)	.
*Xrep	*	*	*	*	*	*	*	*	*	*	*	*	*	*	*	*	*	*	*Xrep	*	*Xrep	*	*Xrep	*	*	*	*	*	*	*	*	*
=18	=18	=18	=18	=18	=18	=18	=18	=18	=18	=18	=18	=18	=18	=18	=18	=18	=18	=18	=18	=18	=18	=18	=18	=18	=18	=18	=18	=18	=18	=18	=18	=18
8D\	.	1ryy	1r	.	1r	.	.	1r	.	.	1ryy	.	.	1r	.	1r	.	.	8d\	.	8d 8B/	.	8g/	.	1r	.	1r	.	1r	.	16ggg'\LL	.
.	.	.	.	.	.	.	.	.	.	.	.	.	.	.	.	.	.	.	.	.	.	.	.	.	.	.	.	.	.	.	(>16bb\	.
8r	.	.	.	.	.	.	.	.	.	.	.	.	.	.	.	.	.	.	8r	.	8r	.	8r	.	.	.	.	.	.	.	16ccc\	.
.	.	.	.	.	.	.	.	.	.	.	.	.	.	.	.	.	.	.	.	.	.	.	.	.	.	.	.	.	.	.	16ccc#X\JJ)	.
*rep	*	*	*	*	*	*	*	*	*	*	*	*	*	*	*	*	*	*	*rep	*	*rep	*	*rep	*	*	*	*	*	*	*	*	*
8D\yy	.	.	.	.	.	.	.	.	.	.	.	.	.	.	.	.	.	.	8d\yy	.	8d 8B/yy	.	8g/yy	.	.	.	.	.	.	.	16ddd'\LL	.
.	.	.	.	.	.	.	.	.	.	.	.	.	.	.	.	.	.	.	.	.	.	.	.	.	.	.	.	.	.	.	(>16gg\	.
8ryy	.	.	.	.	.	.	.	.	.	.	.	.	.	.	.	.	.	.	8ryy	.	8ryy	.	8ryy	.	.	.	.	.	.	.	16aa\	.
.	.	.	.	.	.	.	.	.	.	.	.	.	.	.	.	.	.	.	.	.	.	.	.	.	.	.	.	.	.	.	16aa#X\JJ)	.
*Xrep	*	*	*	*	*	*	*	*	*	*	*	*	*	*	*	*	*	*	*Xrep	*	*Xrep	*	*Xrep	*	*	*	*	*	*	*	*	*
*rep	*	*	*	*	*	*	*	*	*	*	*	*	*	*	*	*	*	*	*rep	*	*rep	*	*rep	*	*	*	*	*	*	*	*	*
8D\yy	.	.	.	.	.	.	.	.	.	.	.	.	.	.	.	.	.	.	8d\yy	.	8d 8B/yy	.	8g/yy	.	.	.	.	.	.	.	16bb\LL	.
.	.	.	.	.	.	.	.	.	.	.	.	.	.	.	.	.	.	.	.	.	.	.	.	.	.	.	.	.	.	.	(>16dd\	.
8ryy	.	.	.	.	.	.	.	.	.	.	.	.	.	.	.	.	.	.	8ryy	.	8ryy	.	8ryy	.	.	.	.	.	.	.	16ee\	.
.	.	.	.	.	.	.	.	.	.	.	.	.	.	.	.	.	.	.	.	.	.	.	.	.	.	.	.	.	.	.	16ff#\JJ	.
*Xrep	*	*	*	*	*	*	*	*	*	*	*	*	*	*	*	*	*	*	*Xrep	*	*Xrep	*	*Xrep	*	*	*	*	*	*	*	*	*
*rep	*	*	*	*	*	*	*	*	*	*	*	*	*	*	*	*	*	*	*rep	*	*rep	*	*rep	*	*	*	*	*	*	*	*	*
8D\yy	.	.	.	.	.	.	.	.	.	.	.	.	.	.	.	.	.	.	8d\yy	.	8d 8B/yy	.	8g/yy	.	.	.	.	.	.	.	16aa#\LL	.
.	.	.	.	.	.	.	.	.	.	.	.	.	.	.	.	.	.	.	.	.	.	.	.	.	.	.	.	.	.	.	16gg\)	.
8ryy	.	.	.	.	.	.	.	.	.	.	.	.	.	.	.	.	.	.	8ryy	.	8ryy	.	8ryy	.	.	.	.	.	.	.	16ff#'\	.
.	.	.	.	.	.	.	.	.	.	.	.	.	.	.	.	.	.	.	.	.	.	.	.	.	.	.	.	.	.	.	16ee'\JJ	.
*Xrep	*	*	*	*	*	*	*	*	*	*	*	*	*	*	*	*	*	*	*Xrep	*	*Xrep	*	*Xrep	*	*	*	*	*	*	*	*	*
=19	=19	=19	=19	=19	=19	=19	=19	=19	=19	=19	=19	=19	=19	=19	=19	=19	=19	=19	=19	=19	=19	=19	=19	=19	=19	=19	=19	=19	=19	=19	=19	=19
4C^</	.	1ryy	1r	.	1r	.	.	1r	.	.	1ryy	.	.	1r	.	1r	.	.	4c^<\	.	8r	.	8r	.	1r	.	1r	.	1r	.	8ee-X\L|>	.
.	.	.	.	.	.	.	.	.	.	.	.	.	.	.	.	.	.	.	.	.	16e-XLL 16c^</	.	16a^</LL	.	.	.	.	.	.	.	(>16cc\L	.
.	.	.	.	.	.	.	.	.	.	.	.	.	.	.	.	.	.	.	.	.	16e-JJ 16c/	.	16a/JJ	.	.	.	.	.	.	.	16a\JJ)	.
4r	.	.	.	.	.	.	.	.	.	.	.	.	.	.	.	.	.	.	4r	.	8e-L 8c/	.	8a/L	.	.	.	.	.	.	.	2e-X^>/	.
.	.	.	.	.	.	.	.	.	.	.	.	.	.	.	.	.	.	.	.	.	8e-J 8c/	.	8a/J	.	.	.	.	.	.	.	.	.
*	*	*	*	*	*	*	*	*	*	*	*	*	*	*	*	*	*	*	*	*	*tremolo	*	*	*	*	*	*	*	*	*	*	*
*	*	*	*	*	*	*	*	*	*	*	*	*	*	*	*	*	*	*	*	*	*	*	*tremolo	*	*	*	*	*	*	*	*	*
2r	.	.	.	.	.	.	.	.	.	.	.	.	.	.	.	.	.	.	2r	.	8e- 8c/L	.	8a/L	.	.	.	.	.	.	.	.	.
.	.	.	.	.	.	.	.	.	.	.	.	.	.	.	.	.	.	.	.	.	8e- 8c/	.	8a/	.	.	.	.	.	.	.	.	.
.	.	.	.	.	.	.	.	.	.	.	.	.	.	.	.	.	.	.	.	.	8e- 8c/	.	8a/	.	.	.	.	.	.	.	4e-^>/	.
.	.	.	.	.	.	.	.	.	.	.	.	.	.	.	.	.	.	.	.	.	8e- 8c/J	.	8a/J	.	.	.	.	.	.	.	.	.
=20	=20	=20	=20	=20	=20	=20	=20	=20	=20	=20	=20	=20	=20	=20	=20	=20	=20	=20	=20	=20	=20	=20	=20	=20	=20	=20	=20	=20	=20	=20	=20	=20
*	*	*	*	*	*	*	*	*	*	*	*	*	*	*	*	*	*	*	*	*	*	*	*	*	*	*	*	*	*	*	*Xtuplet	*
8D\	.	1ryy	1r	.	1r	.	.	1r	.	.	1ryy	.	.	1r	.	1r	.	.	8d\	.	8d 8B/	.	8g/	.	1r	.	1r	.	1r	.	12d'/L	.
.	.	.	.	.	.	.	.	.	.	.	.	.	.	.	.	.	.	.	.	.	.	.	.	.	.	.	.	.	.	.	(<12a#X/	.
8r	.	.	.	.	.	.	.	.	.	.	.	.	.	.	.	.	.	.	8r	.	8r	.	8r	.	.	.	.	.	.	.	.	.
.	.	.	.	.	.	.	.	.	.	.	.	.	.	.	.	.	.	.	.	.	.	.	.	.	.	.	.	.	.	.	12b/J)	.
*rep	*	*	*	*	*	*	*	*	*	*	*	*	*	*	*	*	*	*	*rep	*	*rep	*	*rep	*	*	*	*	*	*	*	*	*
8D\yy	.	.	.	.	.	.	.	.	.	.	.	.	.	.	.	.	.	.	8d\yy	.	8d 8B/yy	.	8g/yy	.	.	.	.	.	.	.	12g\L	.
.	.	.	.	.	.	.	.	.	.	.	.	.	.	.	.	.	.	.	.	.	.	.	.	.	.	.	.	.	.	.	(>12cc#X\	.
*	*	*	*	*	*	*	*	*	*	*	*	*	*	*	*	*	*	*	*Xrep	*	*Xrep	*	*Xrep	*	*	*	*	*	*	*	*	*
8ryy	.	.	.	.	.	.	.	.	.	.	.	.	.	.	.	.	.	.	8ryy	.	8ryy	.	8ryy	.	.	.	.	.	.	.	.	.
.	.	.	.	.	.	.	.	.	.	.	.	.	.	.	.	.	.	.	.	.	.	.	.	.	.	.	.	.	.	.	12dd\J)	.
*Xrep	*	*	*	*	*	*	*	*	*	*	*	*	*	*	*	*	*	*	*	*	*	*	*	*	*	*	*	*	*	*	*	*
*rep	*	*	*	*	*	*	*	*	*	*	*	*	*	*	*	*	*	*	*rep	*	*rep	*	*rep	*	*	*	*	*	*	*	*	*
8D\yy	.	.	.	.	.	.	.	.	.	.	.	.	.	.	.	.	.	.	8d\yy	.	8d 8B/yy	.	8g/yy	.	.	.	.	.	.	.	12b'\L	.
.	.	.	.	.	.	.	.	.	.	.	.	.	.	.	.	.	.	.	.	.	.	.	.	.	.	.	.	.	.	.	(>12ff#\	.
*	*	*	*	*	*	*	*	*	*	*	*	*	*	*	*	*	*	*	*Xrep	*	*Xrep	*	*Xrep	*	*	*	*	*	*	*	*	*
8ryy	.	.	.	.	.	.	.	.	.	.	.	.	.	.	.	.	.	.	8ryy	.	8ryy	.	8ryy	.	.	.	.	.	.	.	.	.
.	.	.	.	.	.	.	.	.	.	.	.	.	.	.	.	.	.	.	.	.	.	.	.	.	.	.	.	.	.	.	12gg\J)	.
*Xrep	*	*	*	*	*	*	*	*	*	*	*	*	*	*	*	*	*	*	*	*	*	*	*	*	*	*	*	*	*	*	*	*
*rep	*	*	*	*	*	*	*	*	*	*	*	*	*	*	*	*	*	*	*rep	*	*rep	*	*rep	*	*	*	*	*	*	*	*	*
8D\yy	.	.	.	.	.	.	.	.	.	.	.	.	.	.	.	.	.	.	8d\yy	.	8d 8B/yy	.	8g/yy	.	.	.	.	.	.	.	12dd'\L	.
.	.	.	.	.	.	.	.	.	.	.	.	.	.	.	.	.	.	.	.	.	.	.	.	.	.	.	.	.	.	.	(>12aa#X\	.
*	*	*	*	*	*	*	*	*	*	*	*	*	*	*	*	*	*	*	*Xrep	*	*Xrep	*	*Xrep	*	*	*	*	*	*	*	*	*
8ryy	.	.	.	.	.	.	.	.	.	.	.	.	.	.	.	.	.	.	8ryy	.	8ryy	.	8ryy	.	.	.	.	.	.	.	.	.
.	.	.	.	.	.	.	.	.	.	.	.	.	.	.	.	.	.	.	.	.	.	.	.	.	.	.	.	.	.	.	12bb\J)	.
*Xrep	*	*	*	*	*	*	*	*	*	*	*	*	*	*	*	*	*	*	*	*	*	*	*	*	*	*	*	*	*	*	*	*
!!LO:PB:g=original
=21	=21	=21	=21	=21	=21	=21	=21	=21	=21	=21	=21	=21	=21	=21	=21	=21	=21	=21	=21	=21	=21	=21	=21	=21	=21	=21	=21	=21	=21	=21	=21	=21
8D\	.	1ryy	1r	.	1r	.	.	1r	.	.	1ryy	.	.	1r	.	1r	.	.	8d\	.	8d 8B/	.	8g/	.	1r	.	1r	.	1r	.	12gg'\L	.
.	.	.	.	.	.	.	.	.	.	.	.	.	.	.	.	.	.	.	.	.	.	.	.	.	.	.	.	.	.	.	(>12ccc#X\	.
8r	.	.	.	.	.	.	.	.	.	.	.	.	.	.	.	.	.	.	8r	.	8r	.	8r	.	.	.	.	.	.	.	.	.
.	.	.	.	.	.	.	.	.	.	.	.	.	.	.	.	.	.	.	.	.	.	.	.	.	.	.	.	.	.	.	12ddd\J)	.
*	*	*	*	*	*	*	*	*	*	*	*	*	*	*	*	*	*	*	*rep	*	*rep	*	*	*	*	*	*	*	*	*	*	*
8D\	.	.	.	.	.	.	.	.	.	.	.	.	.	.	.	.	.	.	8d\yy	.	8d 8B/yy	.	8g/	.	.	.	.	.	.	.	12bb'\L	.
.	.	.	.	.	.	.	.	.	.	.	.	.	.	.	.	.	.	.	.	.	.	.	.	.	.	.	.	.	.	.	(>12fff#\	.
8r	.	.	.	.	.	.	.	.	.	.	.	.	.	.	.	.	.	.	8ryy	.	8ryy	.	8r	.	.	.	.	.	.	.	.	.
.	.	.	.	.	.	.	.	.	.	.	.	.	.	.	.	.	.	.	.	.	.	.	.	.	.	.	.	.	.	.	12ggg\J)	.
8D\	.	.	.	.	.	.	.	.	.	.	.	.	.	.	.	.	.	.	8d\yy	.	8d 8B/yy	.	8g/	.	.	.	.	.	.	.	(>12ccc#X\L	.
.	.	.	.	.	.	.	.	.	.	.	.	.	.	.	.	.	.	.	.	.	.	.	.	.	.	.	.	.	.	.	12ddd\)	.
*	*	*	*	*	*	*	*	*	*	*	*	*	*	*	*	*	*	*	*Xrep	*	*Xrep	*	*	*	*	*	*	*	*	*	*	*
8r	.	.	.	.	.	.	.	.	.	.	.	.	.	.	.	.	.	.	8ryy	.	8ryy	.	8r	.	.	.	.	.	.	.	.	.
.	.	.	.	.	.	.	.	.	.	.	.	.	.	.	.	.	.	.	.	.	.	.	.	.	.	.	.	.	.	.	12aa#X'\J	.
.	.	.	.	.	.	.	.	.	.	.	.	.	.	.	.	.	.	.	.	.	.	.	.	.	.	.	.	.	.	.	8qcccn/	.
4r	.	.	.	.	.	.	.	.	.	.	.	.	.	.	.	.	.	.	4r	.	4r	.	4r	.	.	.	.	.	.	.	12bb\L	.
.	.	.	.	.	.	.	.	.	.	.	.	.	.	.	.	.	.	.	.	.	.	.	.	.	.	.	.	.	.	.	12aa#\	.
.	.	.	.	.	.	.	.	.	.	.	.	.	.	.	.	.	.	.	.	.	.	.	.	.	.	.	.	.	.	.	12gg\J	.
=22	=22	=22	=22	=22	=22	=22	=22	=22	=22	=22	=22	=22	=22	=22	=22	=22	=22	=22	=22	=22	=22	=22	=22	=22	=22	=22	=22	=22	=22	=22	=22	=22
.	.	.	.	.	.	.	.	.	.	.	.	.	.	.	.	.	.	.	.	.	.	.	.	.	.	.	.	.	.	.	8qgg#X/	.
!	!	!	!	!	!	!	!	!	!	!	!	!	!	!	!	!	!	!	!	!	!	!	!	!	!	!	!	!	!	!LO:HP:a	!	!
4C/	.	1ryy	1r	.	1r	.	.	1r	.	.	1ryy	.	.	1r	.	1r	.	.	4c\	.	8r	.	8r	.	1ee 1cc^>	p	1r	.	1a 1g	p>]	1aaT	.
*	*	*	*	*	*	*	*	*	*	*	*	*	*	*	*	*	*	*	*	*	*Xtremolo	*	*Xtremolo	*	*	*	*	*	*	*	*	*
.	.	.	.	.	.	.	.	.	.	.	.	.	.	.	.	.	.	.	.	.	16eLL 16c/	.	16aLL 16g/	.	.	.	.	.	.	.	.	.
.	.	.	.	.	.	.	.	.	.	.	.	.	.	.	.	.	.	.	.	.	16eJJ 16c/	.	16aJJ 16g/	.	.	.	.	.	.	.	.	.
4r	.	.	.	.	.	.	.	.	.	.	.	.	.	.	.	.	.	.	4r	.	8eL 8c/	.	8aL 8g/	.	.	.	.	.	.	.	.	.
.	.	.	.	.	.	.	.	.	.	.	.	.	.	.	.	.	.	.	.	.	8eJ 8c/	.	8aJ 8g/	.	.	.	.	.	.	.	.	.
*	*	*	*	*	*	*	*	*	*	*	*	*	*	*	*	*	*	*	*	*	*tremolo	*	*tremolo	*	*	*	*	*	*	*	*	*
2r	.	.	.	.	.	.	.	.	.	.	.	.	.	.	.	.	.	.	2r	.	8e 8c/L	.	8a 8g/L	.	.	.	.	.	.	.	.	.
.	.	.	.	.	.	.	.	.	.	.	.	.	.	.	.	.	.	.	.	.	8e 8c/	.	8a 8g/	.	.	.	.	.	.	.	.	.
.	.	.	.	.	.	.	.	.	.	.	.	.	.	.	.	.	.	.	.	.	8e 8c/	.	8a 8g/	.	.	.	.	.	.	.	.	.
.	.	.	.	.	.	.	.	.	.	.	.	.	.	.	.	.	.	.	.	.	8e 8c/J	.	8a 8g/J	.	.	.	.	.	.	.	.	.
=23	=23	=23	=23	=23	=23	=23	=23	=23	=23	=23	=23	=23	=23	=23	=23	=23	=23	=23	=23	=23	=23	=23	=23	=23	=23	=23	=23	=23	=23	=23	=23	=23
*	*	*	*	*	*	*	*	*	*	*	*	*	*	*	*	*	*	*	*	*	*Xtremolo	*	*Xtremolo	*	*	*	*	*	*	*	*	*
.	.	.	.	.	.	.	.	.	.	.	.	.	.	.	.	.	.	.	.	.	.	.	.	.	.	.	.	.	.	.	8qccc#X/	.
!	!	!	!	!	!	!	!	!	!	!	!	!	!	!	!	!	!	!	!	!	!	!	!	!	!	!LO:HP:b	!	!	!	!LO:HP:b	!	!
4D/	.	1ryy	1r	.	1r	.	.	1r	.	.	1ryy	.	.	1r	.	1r	.	.	4d\	.	8r	.	8r	.	1dd	<[	1r	.	1a 1f#	<[	2.dddT\	.
.	.	.	.	.	.	.	.	.	.	.	.	.	.	.	.	.	.	.	.	.	16aLL 16d/	.	16ddLL 16f#\	.	.	.	.	.	.	.	.	.
.	.	.	.	.	.	.	.	.	.	.	.	.	.	.	.	.	.	.	.	.	16aJJ 16d/	.	16ddJJ 16f#\	.	.	.	.	.	.	.	.	.
!	!	!	!	!	!	!	!	!	!	!	!	!	!	!	!	!	!	!	!	!	!	!	!	!LO:DY:a	!	!	!	!	!	!	!	!
4r	.	.	.	.	.	.	.	.	.	.	.	.	.	.	.	.	.	.	4r	.	8aL 8d/	.	8ddL 8f#\	<	.	.	.	.	.	.	.	.
.	.	.	.	.	.	.	.	.	.	.	.	.	.	.	.	.	.	.	.	.	8aJ 8d/	.	8ddJ 8f#\	.	.	.	.	.	.	.	.	.
*	*	*	*	*	*	*	*	*	*	*	*	*	*	*	*	*	*	*	*	*	*tremolo	*	*tremolo	*	*	*	*	*	*	*	*	*
2r	.	.	.	.	.	.	.	.	.	.	.	.	.	.	.	.	.	.	2r	.	8a 8d/L	.	8dd 8f#\L	[[	.	.	.	.	.	.	.	.
.	.	.	.	.	.	.	.	.	.	.	.	.	.	.	.	.	.	.	.	.	8a 8d/	.	8dd 8f#\	.	.	.	.	.	.	.	.	.
.	.	.	.	.	.	.	.	.	.	.	.	.	.	.	.	.	.	.	.	.	8a 8d/	.	8dd 8f#\	.	.	.	.	.	.	.	(>16ccc#\LL	.
.	.	.	.	.	.	.	.	.	.	.	.	.	.	.	.	.	.	.	.	.	.	.	.	.	.	.	.	.	.	.	16ddd\	.
.	.	.	.	.	.	.	.	.	.	.	.	.	.	.	.	.	.	.	.	.	8a 8d/J	.	8dd 8f#\J	.	.	.	.	.	.	.	16eee\	.
.	.	.	.	.	.	.	.	.	.	.	.	.	.	.	.	.	.	.	.	.	.	.	.	.	.	.	.	.	.	.	16fff#\JJ	.
=24	=24	=24	=24	=24	=24	=24	=24	=24	=24	=24	=24	=24	=24	=24	=24	=24	=24	=24	=24	=24	=24	=24	=24	=24	=24	=24	=24	=24	=24	=24	=24	=24
*	*	*	*	*	*	*	*	*	*	*	*	*	*	*	*	*	*	*	*	*	*	*	*	*	*	*	*	*	*^	*	*	*
4GG/	.	1ryy	1r	.	1r	.	.	1r	.	.	1ryy	.	.	1r	.	1r	.	.	4d 4G/	.	4g/	.	4b 4g/	.	4dd 4g/	.	2r	.	4b/	4g\	.	4ggg\)	.
!	!LO:DY:b	!	!	!	!	!	!	!	!	!	!	!	!	!	!	!	!	!	!	!	!	!	!	!	!	!	!	!	!	!	!	!	!
4r	f	.	.	.	.	.	.	.	.	.	.	.	.	.	.	.	.	.	4r	.	4r	.	4r	.	4r	.	.	f	4rb	2.g\yy	.	4r	.
!	!	!	!	!	!	!	!	!	!	!	!	!	!	!	!	!	!	!	!	!LO:DY:rj	!	!LO:DY:rj	!	!LO:DY:rj	!	!	!	!	!	!	!	!	!LO:DY:rj
4E/	.	.	.	.	.	.	.	.	.	.	.	.	.	.	.	.	.	.	4e\	f	4b 4g/	f	4gg 4b 4e'\	f	4gg 4ee\	.	4E\	.	4gg 4b\	.	.	4ggg\	f
4AA/	.	.	.	.	.	.	.	.	.	.	.	.	.	.	.	.	.	.	4e 4A\	.	4a 4g/	.	4cc#X 4g'>/	.	4gg 4ee\	.	4A 4AA\	.	4cc#X 4g/	.	.	4ccc#X\	.
*	*	*	*	*	*	*	*	*	*	*	*	*	*	*	*	*	*	*	*	*	*	*	*	*	*	*	*	*	*v	*v	*	*	*
*	*	*	*	*	*clefC4	*	*	*clefC4	*	*	*	*	*	*	*	*	*	*	*	*	*	*	*	*	*	*	*	*	*	*	*	*
=25	=25	=25	=25	=25	=25	=25	=25	=25	=25	=25	=25	=25	=25	=25	=25	=25	=25	=25	=25	=25	=25	=25	=25	=25	=25	=25	=25	=25	=25	=25	=25	=25
*	*	*	*	*	*	*	*	*	*	*	*	*	*	*	*	*	*	*	*	*	*^	*	*^	*	*	*	*	*	*	*	*	*
*	*	*	*	*	*	*	*	*	*	*	*	*	*	*	*	*	*	*	*	*	*	*	*	*	*	*	*^	*	*	*	*	*	*	*
!	!	!	!LO:TX:a:i:t=Baſso	!	!LO:TX:a:i:t=Tenori	!	!	!	!	!	!	!	!	!	!	!	!	!	!	!	!	!	!	!	!	!	!	!	!	!	!	!	!	!	!
4D\	.	1ryy	2r	.	2r	.	.	2r	.	.	1ryy	.	.	1ryy	.	1ryy	.	.	4d\	.	4a 4f#/	4d\yy	.	4dd 4f#/	4d\yy	.	4dd\	4dd/	.	4A 4D\	.	4dd 4f#/	.	4ddd\	.
8.r	.	.	.	.	.	.	.	.	.	.	.	.	.	.	.	.	.	.	8.r	.	8.rb	8.d\Lyy	.	8.rb	8.d\Lyy	.	4r	4ryy	.	4r	.	4r	.	4r	.
16D\	.	.	.	.	.	.	.	.	.	.	.	.	.	.	.	.	.	.	16D/	.	16d/	16d\Jk	.	16d/	16d\Jk	.	.	.	.	.	.	.	.	.	.
4D\	.	.	4r	.	4r	.	.	4r	.	.	.	.	.	.	.	.	.	.	4D/	.	4d/	4d\	.	4d/	4d\	.	4r	4ryy	p	4r	p	2r	.	2r	.
*	*	*	*	*ij	*	*ij	*	*	*	*	*	*	*	*	*	*	*	*	*	*	*	*	*	*	*	*	*	*	*	*	*	*	*	*	*
4r	.	.	4G\	O	4B\	O	.	4d\	O	.	.	.	.	.	.	.	.	.	4r	.	4rb	4rb	.	4rb	4rb	.	4dd 4g\	4ryy	.	4B 4GG\	.	.	.	.	.
*	*	*	*	*	*	*	*	*	*	*	*	*	*	*	*	*	*	*	*	*	*	*	*	*	*	*	*v	*v	*	*	*	*	*	*	*
*	*	*	*	*	*	*	*	*	*	*	*	*	*	*	*	*	*	*	*	*	*v	*v	*	*	*	*	*	*	*	*	*	*	*	*
*	*	*	*	*	*	*	*	*	*	*	*	*	*	*	*	*	*	*	*	*	*	*	*v	*v	*	*	*	*	*	*	*	*	*
=26	=26	=26	=26	=26	=26	=26	=26	=26	=26	=26	=26	=26	=26	=26	=26	=26	=26	=26	=26	=26	=26	=26	=26	=26	=26	=26	=26	=26	=26	=26	=26	=26
1r	.	1ryy	4C/	Sa-	4c\	Sa-	.	4e\	Sa-	.	1ryy	.	.	1ryy	.	1ryy	.	.	1r	.	1r	.	1r	.	4ee 4cc\	.	4c 4C\	.	1r	.	1r	.
.	.	.	4G\	-lu-	4B\	-lu-	.	4d\	-lu-	.	.	.	.	.	.	.	.	.	.	.	.	.	.	.	4dd 4g\	.	4B 4G\	.	.	.	.	.
.	.	.	4.A\	-ta-	4.A\	-ta-	.	4.c\	-ta-	.	.	.	.	.	.	.	.	.	.	.	.	.	.	.	4.cc 4.e\	.	4.A\	.	.	.	.	.
.	.	.	8G\	-ris	8B\	-ris	.	8d\	-ris	.	.	.	.	.	.	.	.	.	.	.	.	.	.	.	8dd 8g\	.	8B 8G\	.	.	.	.	.
!!LO:PB:g=original
=27	=27	=27	=27	=27	=27	=27	=27	=27	=27	=27	=27	=27	=27	=27	=27	=27	=27	=27	=27	=27	=27	=27	=27	=27	=27	=27	=27	=27	=27	=27	=27	=27
1r	.	1ryy	4..C/	Ho-	4..c\	Ho-	.	4..e\	Ho-	.	1ryy	.	.	1ryy	.	1ryy	.	.	1r	.	1r	.	1r	.	4..ee 4..cc\	.	4..c 4..C\	<	1r	.	16r	.
.	.	.	.	.	.	.	.	.	.	.	.	.	.	.	.	.	.	.	.	.	.	.	.	.	.	.	.	.	.	.	16g\LL	.
.	.	.	.	.	.	.	.	.	.	.	.	.	.	.	.	.	.	.	.	.	.	.	.	.	.	.	.	.	.	.	16cc\	.
.	.	.	.	.	.	.	.	.	.	.	.	.	.	.	.	.	.	.	.	.	.	.	.	.	.	.	.	.	.	.	16ee\JJ	.
.	.	.	.	.	.	.	.	.	.	.	.	.	.	.	.	.	.	.	.	.	.	.	.	.	.	.	.	.	.	.	16gg\LL	.
.	.	.	.	.	.	.	.	.	.	.	.	.	.	.	.	.	.	.	.	.	.	.	.	.	.	.	.	.	.	.	16ccc\	.
.	.	.	.	.	.	.	.	.	.	.	.	.	.	.	.	.	.	.	.	.	.	.	.	.	.	.	.	.	.	.	16eee\	.
!	!	!	!	!	!	!	!	!LO:N:vis=8	!	!	!	!	!	!	!	!	!	!	!	!	!	!	!	!	!	!	!	!	!	!	!	!
.	.	.	16D\	-sti-	16c\	-sti-	.	16g\	-sti-	.	.	.	.	.	.	.	.	.	.	.	.	.	.	.	16gg 16cc\	.	16c 16C\	[[	.	.	16ggg\JJ	.
!	!	!	!	!	!	!	!	!	!	!	!	!	!	!	!	!	!	!	!	!	!	!	!	!	!	!	!	!LO:HP:b	!	!	!	!
.	.	.	4G\	-a	4B\	-a	.	4d\	-a	.	.	.	.	.	.	.	.	.	.	.	.	.	.	.	4dd 4g\	.	4B 4G\	>	.	.	4ddd\	.
.	.	.	4G\	que	4B\	que	.	4d\	que	.	.	.	.	.	.	.	.	.	.	.	.	.	.	.	4dd 4g\	.	4B 4G\	]	.	.	4r	.
=28	=28	=28	=28	=28	=28	=28	=28	=28	=28	=28	=28	=28	=28	=28	=28	=28	=28	=28	=28	=28	=28	=28	=28	=28	=28	=28	=28	=28	=28	=28	=28	=28
*	*	*	*	*	*	*	*	*	*	*	*	*	*	*	*	*	*	*	*	*	*	*	*	*	*^	*	*	*	*	*	*	*
1r	.	1ryy	4F#\	cae-	4A\	cae-	.	4d\	cae-	.	1ryy	.	.	1ryy	.	1ryy	.	.	1r	.	1r	.	1r	.	(>4dd/	2f#X\	.	2A 2F#^<\	.	1r	.	1r	.
.	.	.	4F#\	-li	4A\	-li	.	4c\	-li	.	.	.	.	.	.	.	.	.	.	.	.	.	.	.	4cc/)	.	.	.	.	.	.	.	.
.	.	.	4G\	pan-	4G\	pan-	.	4B\	pan-	.	.	.	.	.	.	.	.	.	.	.	.	.	.	.	4b/	4g\	.	4B 4G\	.	.	.	.	.
.	.	.	4C/	-dis	4A\	-dis	.	(>8d\L	-dis	.	.	.	.	.	.	.	.	.	.	.	.	.	.	.	(>8dd/L	4c\	.	4A 4C\	.	.	.	.	.
.	.	.	.	.	.	.	.	8c\J)	.	.	.	.	.	.	.	.	.	.	.	.	.	.	.	.	8cc/J)	.	.	.	.	.	.	.	.
=29	=29	=29	=29	=29	=29	=29	=29	=29	=29	=29	=29	=29	=29	=29	=29	=29	=29	=29	=29	=29	=29	=29	=29	=29	=29	=29	=29	=29	=29	=29	=29	=29	=29
1r	.	1ryy	4..D\	o-	(>[>8G\L	o-	.	(>[>8B\L	o-	.	1ryy	.	.	1ryy	.	1ryy	.	.	1r	.	1r	.	1r	.	4..b 4..d/	2.ryy	.	4..G 4..D\	.	1r	.	1r	.
.	.	.	.	.	32G\LL]	.	.	32B\LL]	.	.	.	.	.	.	.	.	.	.	.	.	.	.	.	.	.	.	.	.	.	.	.	.	.
.	.	.	.	.	32A\	.	.	32c\	.	.	.	.	.	.	.	.	.	.	.	.	.	.	.	.	.	.	.	.	.	.	.	.	.
.	.	.	.	.	32G\)	.	.	32B\	.	.	.	.	.	.	.	.	.	.	.	.	.	.	.	.	.	.	.	.	.	.	.	.	.
.	.	.	.	.	32F#\JJJ	.	.	32A\JJJ)	.	.	.	.	.	.	.	.	.	.	.	.	.	.	.	.	.	.	.	.	.	.	.	.	.
.	.	.	.	.	8.G\	-sti-	.	8.B\	-sti-	.	.	.	.	.	.	.	.	.	.	.	.	.	.	.	.	.	.	.	.	.	.	.	.
.	.	.	16D\	-sti-	16A\	-um	.	16c\	-um	.	.	.	.	.	.	.	.	.	.	.	.	.	.	.	16cc 16d/	.	.	16A 16D\	.	.	.	.	.
.	.	.	4D\	-um	4F#/	.	.	4A\	.	.	.	.	.	.	.	.	.	.	.	.	.	.	.	.	4a 4d/	.	.	4F# 4D\	.	.	.	.	.
.	.	.	8.D\	Bel-	8.F#/	Bel-	.	8.A\	Bel-	.	.	.	.	.	.	.	.	.	.	.	.	.	.	.	8.a/L	4d\	.	4F# 4D\	.	.	.	.	.
.	.	.	16D\	-la	16F#/	-la	.	16d\	-la	.	.	.	.	.	.	.	.	.	.	.	.	.	.	.	16dd/Jk	.	.	.	.	.	.	.	.
=30	=30	=30	=30	=30	=30	=30	=30	=30	=30	=30	=30	=30	=30	=30	=30	=30	=30	=30	=30	=30	=30	=30	=30	=30	=30	=30	=30	=30	=30	=30	=30	=30	=30
*	*	*	*2\right	*	*	*	*	*	*	*	*	*	*	*	*	*	*	*	*	*	*	*	*	*	*	*	*	*	*	*	*	*	*
1r	.	1ryy	2E\	pre-	2G/	pre-	.	(>4.d\	pre-	.	1ryy	.	.	1ryy	.	1ryy	.	.	1r	.	1r	.	1r	.	(>4.dd/	2.e\	.	2.G 2.E\	.	1r	.	1r	.
.	.	.	.	.	.	.	.	16e\LL	.	.	.	.	.	.	.	.	.	.	.	.	.	.	.	.	16ee/LL	.	.	.	.	.	.	.	.
.	.	.	.	.	.	.	.	16d\JJ)	.	.	.	.	.	.	.	.	.	.	.	.	.	.	.	.	16dd/JJ	.	.	.	.	.	.	.	.
.	.	.	4E\	-munt	4G/	-munt	.	4c#X\	-munt	.	.	.	.	.	.	.	.	.	.	.	.	.	.	.	4cc#X/)	.	.	.	.	.	.	.	.
.	.	.	4F#\	ho-	4A/	ho-	.	4d\	ho-	.	.	.	.	.	.	.	.	.	.	.	.	.	.	.	4dd/	4f#X\	.	4A 4F#\	.	.	.	.	.
*	*	*	*	*	*	*	*	*	*	*	*	*	*	*	*	*	*	*	*	*	*	*	*	*	*v	*v	*	*	*	*	*	*	*
=31	=31	=31	=31	=31	=31	=31	=31	=31	=31	=31	=31	=31	=31	=31	=31	=31	=31	=31	=31	=31	=31	=31	=31	=31	=31	=31	=31	=31	=31	=31	=31	=31
2r	.	1ryy	4..G\	-sti-	4..B\	-sti-	.	4..B\	-sti-	.	1ryy	.	.	1ryy	.	1ryy	.	.	2r	.	2r	.	2r	.	4..b 4..g/	.	4..B 4..G\	.	1r	.	1r	.
.	.	.	16G\	-li-	16B\	-li-	.	16e\	-li-	.	.	.	.	.	.	.	.	.	.	.	.	.	.	.	16ee 16g\	.	16B 16G\	.	.	.	.	.
4r	.	.	4G\	-a	4B\	-a	.	4e\	-a	.	.	.	.	.	.	.	.	.	4r	.	4r	.	4r	.	4ee 4g\	.	4B 4G\	.	.	.	.	.
!	!LO:DY:b:rj	!	!	!	!	!	!	!	!	!	!	!	!	!	!	!	!	!	!	!	!	!	!	!	!	!	!	!	!	!	!	!
8G\	p	.	4G\	da	4A\	da	.	4c#X\	da	.	.	.	.	.	.	.	.	.	8r	.	8r	.	8r	.	4cc#X 4g\	.	4A 4G\	.	.	.	.	.
!	!LO:HP:b	!	!	!	!	!	!	!	!	!	!	!	!	!	!	!	!	!	!	!	!	!	!	!	!	!	!	!	!	!	!	!
8r	<	.	.	.	.	.	.	.	.	.	.	.	.	.	.	.	.	.	8G/	.	8A/	.	8c#X/	.	.	.	.	.	.	.	.	.
=32	=32	=32	=32	=32	=32	=32	=32	=32	=32	=32	=32	=32	=32	=32	=32	=32	=32	=32	=32	=32	=32	=32	=32	=32	=32	=32	=32	=32	=32	=32	=32	=32
*	*	*	*	*	*2\right	*	*	*2\right	*	*	*	*	*	*	*	*	*	*	*	*	*	*	*	*	*	*	*	*	*	*	*	*
!	!	!	!	!	!	!	!	!	!	!	!	!	!	!	!	!	!	!	!	!	!	!	!	!	!	!LO:HP:b	!	!	!	!	!	!
8F#\	.	1ryy	2.F#\	ro-	2.A\	ro-	.	2.d\	ro-	.	1ryy	.	.	1ryy	.	1ryy	.	.	8r	.	8r	.	8r	.	[>2dd [>2f#X\	<	[>2A [>2F#\	<	1r	.	1r	.
8r	.	.	.	.	.	.	.	.	.	.	.	.	.	.	.	.	.	.	8F#/	.	8A/	.	8d/	.	.	.	.	.	.	.	.	.
8F#\	.	.	.	.	.	.	.	.	.	.	.	.	.	.	.	.	.	.	8r	.	8r	.	8r	.	.	.	.	.	.	.	.	.
8r	.	.	.	.	.	.	.	.	.	.	.	.	.	.	.	.	.	.	8F#/	.	8A/	.	8d/	.	.	.	.	.	.	.	.	.
8F#\	.	.	.	.	.	.	.	.	.	.	.	.	.	.	.	.	.	.	8r	.	8r	.	8r	.	4dd] 4f#\]	.	4A] 4F#\]	.	.	.	.	.
8r	.	.	.	.	.	.	.	.	.	.	.	.	.	.	.	.	.	.	8F#/	.	8A/	.	8d/	.	.	.	.	.	.	.	.	.
8G\	.	.	4G\	-bur	4B\	-bur	.	4e\	-bur	.	.	.	.	.	.	.	.	.	8r	.	8r	.	8r	.	4ee 4g\	[	4B 4G\	[	.	.	.	.
8r	.	.	.	.	.	.	.	.	.	.	.	.	.	.	.	.	.	.	8G/	.	8B/	.	8e/	.	.	.	.	.	.	.	.	.
=33	=33	=33	=33	=33	=33	=33	=33	=33	=33	=33	=33	=33	=33	=33	=33	=33	=33	=33	=33	=33	=33	=33	=33	=33	=33	=33	=33	=33	=33	=33	=33	=33
8A\	.	1ryy	4.A\	fer	4.d\	fer	.	4.f#\	fer	.	1ryy	.	.	1ryy	.	1ryy	.	.	8r	.	8r	.	8r	.	(>2ff#X 2a\	.	2d 2A\	.	1r	.	1r	.
8r	.	.	.	.	.	.	.	.	.	.	.	.	.	.	.	.	.	.	8A/	.	8d/	.	8f#/	.	.	.	.	.	.	.	.	.
8A\	.	.	.	.	.	.	.	.	.	.	.	.	.	.	.	.	.	.	8r	.	8r	.	8r	.	.	.	.	.	.	.	.	.
8r	.	.	8A\	au-	8d\	au-	.	8f#\	au-	.	.	.	.	.	.	.	.	.	8A/	.	8d/	.	8f#/	.	.	.	.	.	.	.	.	.
.	.	.	.	.	.	.	.	(<8qf#/	.	.	.	.	.	.	.	.	.	.	.	.	.	.	.	.	8qff#/	.	.	.	.	.	.	.
8AA/	[	.	4..AA;>/	-xi-	4..c#X;>\	-xi-	.	4..e;>\)	-xi-	.	.	.	.	.	.	.	.	.	8r	.	8r	.	8r	.	4..ee 4..a\	.	(>4..c#X 4..AA\	.	.	.	.	.
8r	.	.	.	.	.	.	.	.	.	.	.	.	.	.	.	.	.	.	8A/	.	8c#X/	.	8g/	.	.	.	.	.	.	.	.	.
16AA/	.	.	.	.	.	.	.	.	.	.	.	.	.	.	.	.	.	.	8r	.	8r	.	8r	.	.	.	.	.	.	.	.	.
8.r;>	.	.	.	.	.	.	.	.	.	.	.	.	.	.	.	.	.	.	.	.	.	.	.	.	.	.	.	.	.	.	.	.
.	.	.	.	.	.	.	.	.	.	.	.	.	.	.	.	.	.	.	16A/	.	16c#/	.	16g/	.	.	.	.	.	.	.	.	.
.	.	.	16D/	-li-	16d\	-li-	.	16d\	-li-	.	.	.	.	.	.	.	.	.	16r	.	16r;>	.	16r;>	.	16dd 16a\)	.	16d 16D\)	.	.	.	.	.
!!LO:PB:g=original
=34	=34	=34	=34	=34	=34	=34	=34	=34	=34	=34	=34	=34	=34	=34	=34	=34	=34	=34	=34	=34	=34	=34	=34	=34	=34	=34	=34	=34	=34	=34	=34	=34
*	*	*	*	*	*	*	*	*	*	*	*	*	*	*	*	*	*	*	*	*	*	*	*	*	*^	*	*	*	*	*	*	*
*	*	*	*	*Xij	*	*	*	*	*	*	*	*	*	*	*	*	*	*	*	*	*	*	*	*	*	*	*	*	*	*	*	*	*
!	!	!	!	!	!LO:TX:t=P:problem=błędnie klucz C3	!	!	!	!	!	!LO:TX:a:i:t=Alto	!	!	!	!	!LO:TX:b:i:t=Soprani	!	!	!	!	!	!	!	!	!	!	!	!	!	!	!	!	!
8D\	.	1ryy	8D\	-um	8d\	-um	.	8d\	-um	.	2r	.	.	2r	.	2r	.	.	8d\	.	8d/	.	8f# 8A/	.	8dd/	8dd\	.	8d 8D\	.	2r	.	8dd'\L	.
8r	.	.	8r	.	8r	.	.	8r	.	.	.	.	.	.	.	.	.	.	8r	.	8r	.	8r	.	8rb	8rb	.	8r	.	.	.	(>16cc#X\L	.
.	.	.	.	.	.	.	.	.	.	.	.	.	.	.	.	.	.	.	.	.	.	.	.	.	.	.	.	.	.	.	.	16dd\JJ)	.
!	!	!	!	!	!LO:TX:a:i:t=Tenori	!	!	!	!	!	!	!	!	!	!	!	!	!	!	!	!	!	!	!	!	!	!	!	!	!	!	!	!
4r	.	.	4r	.	4r	.	.	4r	.	.	.	.	.	.	.	.	.	.	4r	.	4r	.	4r	.	4rb	4rb	.	4r	.	.	.	(>16ee#X\LL	.
.	.	.	.	.	.	.	.	.	.	.	.	.	.	.	.	.	.	.	.	.	.	.	.	.	.	.	.	.	.	.	.	16ff#\)	.
.	.	.	.	.	.	.	.	.	.	.	.	.	.	.	.	.	.	.	.	f	.	f	.	f	.	.	f	.	f	.	.	(>16gg#X\	.
.	.	.	.	.	.	.	.	.	.	.	.	.	.	.	.	.	.	.	.	.	.	.	.	.	.	.	.	.	.	.	.	16aa\JJ)	.
!	!LO:DY:b:rj	!	!LO:TX:a:i:t=Baſso	!	!	!	!	!	!	!	!	!	!	!	!	!	!	!	!	!	!	!	!	!	!	!	!	!	!	!	!	!	!
4D\	f	.	4r	.	4r	.	.	4r	.	.	4r	.	.	4r	.	4r	.	.	4f# 4A 4D/	.	4dd 4f# 4A/	.	4ff# 4a 4d\	.	4dd/	4dd\	.	4A 4F#\	mf	4r	mf	4ddd\	.
*	*	*	*	*	*	*	*	*	*ij	*	*	*ij	*	*	*ij	*	*	*	*	*	*	*	*	*	*	*	*	*	*	*	*	*	*
4r	.	.	4G\	U-	4B\	U-	.	4d\	U-	.	4g/	U-	.	4b\	U-	4dd\	U-	.	4r	.	4r	.	4r	.	4dd 4g/	4dd\yy	.	4B 4G\	.	4dd 4b\	.	4r	.
*	*	*	*	*	*	*	*	*	*	*	*	*	*	*	*	*	*	*	*	*	*	*	*	*	*v	*v	*	*	*	*	*	*	*
=35	=35	=35	=35	=35	=35	=35	=35	=35	=35	=35	=35	=35	=35	=35	=35	=35	=35	=35	=35	=35	=35	=35	=35	=35	=35	=35	=35	=35	=35	=35	=35	=35
1r	.	1ryy	4C/	-ni-	4c\	-ni-	.	4e\	-ni-	.	4g/	-ni-	.	4cc\	-ni-	4ee\	-ni-	.	1r	.	1r	.	1r	.	4ee 4cc\	.	4c 4C\	.	4ee 4cc\	.	1r	.
.	.	.	4G\	-tri-	4A\	-tri-	.	4d\	-tri-	.	4g/	-tri-	.	4b\	-tri-	4dd\	-tri-	.	.	.	.	.	.	.	4dd 4g\	.	4B 4GG\	.	4dd 4b\	.	.	.
.	.	.	4.A\	-no-	4.A\	-no-	.	4.c\	-no-	.	4.e/	-no-	.	4.a\	-no-	4.cc\	-no-	.	.	.	.	.	.	.	4.cc 4.e/	.	4.A 4.AA\	.	4.cc 4.a\	.	.	.
.	.	.	8G\	-que	8B\	-que	.	8d\	-que	.	8g/	-que	.	8b\	-que	8dd\	-que	.	.	.	.	.	.	.	8dd 8g/	.	8B 8GG\	.	8dd 8b\	.	.	.
=36	=36	=36	=36	=36	=36	=36	=36	=36	=36	=36	=36	=36	=36	=36	=36	=36	=36	=36	=36	=36	=36	=36	=36	=36	=36	=36	=36	=36	=36	=36	=36	=36
!	!	!	!	!	!	!	!	!	!	!	!	!	!	!	!	!	!	!	!	!	!	!	!	!	!	!	!	!LO:HP:b	!	!LO:HP:b	!	!
2r	.	1ryy	4..C/	Do-	4..c\	Do-	.	4..e\	Do-	.	4..g/	Do-	.	4..cc\	Do-	4..ee\	Do-	.	2r	.	2r	.	2r	.	4..ee 4..cc\	.	4..c 4..C\	<	4..ee 4..cc\	<	16r	.
.	.	.	.	.	.	.	.	.	.	.	.	.	.	.	.	.	.	.	.	.	.	.	.	.	.	.	.	.	.	.	16g\LL	.
.	.	.	.	.	.	.	.	.	.	.	.	.	.	.	.	.	.	.	.	.	.	.	.	.	.	.	.	.	.	.	16cc\	.
.	.	.	.	.	.	.	.	.	.	.	.	.	.	.	.	.	.	.	.	.	.	.	.	.	.	.	.	.	.	.	16ee\JJ	.
.	.	.	.	.	.	.	.	.	.	.	.	.	.	.	.	.	.	.	.	.	.	.	.	.	.	.	.	.	.	.	16gg\LL	.
.	.	.	.	.	.	.	.	.	.	.	.	.	.	.	.	.	.	.	.	.	.	.	.	.	.	.	.	.	.	.	16ccc\	.
.	.	.	.	.	.	.	.	.	.	.	.	.	.	.	.	.	.	.	.	.	.	.	.	.	.	.	.	.	.	.	16eee\	.
!	!	!	!	!	!	!	!	!	!	!	!	!	!	!	!	!	!	!	!	!	!	!	!	!	!	!	!	!LO:HP:b	!	!LO:HP:b	!	!
.	.	.	16E\	-mi-	16c\	-mi-	.	16g\	-mi-	.	16g/	-mi-	.	16cc\	-mi-	16gg\	-mi-	.	.	.	.	.	.	.	16gg 16cc\	.	16c 16E\	[ >	16gg 16cc\	[>	16ggg\JJ	.
4r	.	.	4G\	-no	4B\	-no	.	4d\	-no	.	4g/	-no	.	4b/	-no	4dd\	-no	.	4r	.	4r	.	4r	.	4dd 4g\	.	4B 4G\	]	4dd 4b\	]	4ddd\	.
!	!LO:DY:b:rj	!	!	!	!	!	!	!	!	!	!	!	!	!	!	!	!	!	!	!	!	!	!	!	!	!	!	!	!	!	!	!
8G\	sf	.	4G\	Sit	4A\	sit	.	4c#X\	sit	.	4g/	sit	.	4a/	sit	4cc#X\	sit	.	8r	.	8r	.	8r	.	4cc#X 4g\	.	4A 4G^<\	.	4cc#X 4a^>\	.	4r	.
!	!	!	!	!	!	!	!	!	!	!	!	!	!	!	!	!	!	!	!	!LO:DY:rj	!	!LO:DY:rj	!	!LO:DY:rj	!	!	!	!	!	!	!	!
8r	.	.	.	.	.	.	.	.	.	.	.	.	.	.	.	.	.	.	8g\	sf	8a/	sf	8cc#X\	sf	.	.	.	.	.	.	.	.
=37	=37	=37	=37	=37	=37	=37	=37	=37	=37	=37	=37	=37	=37	=37	=37	=37	=37	=37	=37	=37	=37	=37	=37	=37	=37	=37	=37	=37	=37	=37	=37	=37
*	*	*	*	*	*	*	*	*	*	*	*	*	*	*	*	*2\right	*	*	*	*	*	*	*	*	*	*	*	*	*	*	*	*
!	!LO:HP:b	!	!	!	!	!	!	!	!	!	!	!	!	!	!	!	!	!	!	!	!	!	!	!	!	!	!	!	!	!	!	!
4F#\	<	1ryy	2F#\	sem-	2A\	sem-	.	2d\	sem-	.	2f#/	sem-	.	2a/	sem-	2dd\	sem-	.	8r	.	8r	.	8r	.	2dd 2f#X\	.	2A 2F#\	.	2dd 2a\	.	1r	.
*	*	*	*	*	*	*	*	*	*	*	*	*	*	*	*	*	*	*	*tremolo	*	*	*	*	*	*	*	*	*	*	*	*	*
.	.	.	.	.	.	.	.	.	.	.	.	.	.	.	.	.	.	.	8f#\L	.	8a/L	.	8dd\L	.	.	.	.	.	.	.	.	.
4r	.	.	.	.	.	.	.	.	.	.	.	.	.	.	.	.	.	.	8f#\	.	8a/	.	8dd\	.	.	.	.	.	.	.	.	.
.	.	.	.	.	.	.	.	.	.	.	.	.	.	.	.	.	.	.	8f#\J	.	8a/J	.	8dd\J	.	.	.	.	.	.	.	.	.
!	!	!	!	!	!	!	!	!	!	!	!	!	!	!	!	!	!	!	!	!	!	!	!	!	!	!	!	!LO:HP:b	!	!	!	!
4G\	.	.	2G\	-pi-	2B\	-pi-	.	2e\	-pi-	.	2g/	-pi-	.	2b/	-pi-	2ee\	-pi-	.	8r	.	8r	.	8r	.	2ee 2g\	.	2B 2GT\	<	2ee 2b\	.	.	.
.	.	.	.	.	.	.	.	.	.	.	.	.	.	.	.	.	.	.	8g\L	.	8b\L	.	8ee\L	.	.	.	.	.	.	.	.	.
4r	.	.	.	.	.	.	.	.	.	.	.	.	.	.	.	.	.	.	8g\	.	8b\	.	8ee\	.	.	.	.	.	.	.	.	.
.	.	.	.	.	.	.	.	.	.	.	.	.	.	.	.	.	.	.	8g\J	.	8b\J	.	8ee\J	.	.	.	.	.	.	.	.	.
=38	=38	=38	=38	=38	=38	=38	=38	=38	=38	=38	=38	=38	=38	=38	=38	=38	=38	=38	=38	=38	=38	=38	=38	=38	=38	=38	=38	=38	=38	=38	=38	=38
4A\	.	1ryy	2A\	-ter-	2d\	-ter-	.	2f#\	-ter-	.	2a/	-ter-	.	2dd\	-ter-	2ff#\	-ter-	.	8r	.	8r	.	8r	.	2ff#X 2a\	.	2d 2A\	.	2ff# 2dd\	.	16r	.
.	.	.	.	.	.	.	.	.	.	.	.	.	.	.	.	.	.	.	.	.	.	.	.	.	.	.	.	.	.	.	(>16aaa\LL	.
.	.	.	.	.	.	.	.	.	.	.	.	.	.	.	.	.	.	.	8a\L	.	8dd\L	.	8ff#\L	.	.	.	.	.	.	.	16fff#\)	.
.	.	.	.	.	.	.	.	.	.	.	.	.	.	.	.	.	.	.	.	.	.	.	.	.	.	.	.	.	.	.	16ddd'\JJ	.
4r	.	.	.	.	.	.	.	.	.	.	.	.	.	.	.	.	.	.	8a\	.	8dd\	.	8ff#\	.	.	.	.	.	.	.	16aa'\LL	.
.	.	.	.	.	.	.	.	.	.	.	.	.	.	.	.	.	.	.	.	.	.	.	.	.	.	.	.	.	.	.	(>16fff#\	.
.	.	.	.	.	.	.	.	.	.	.	.	.	.	.	.	.	.	.	8a\J	.	8dd\J	.	8ff#\J	.	.	.	.	.	.	.	16ddd\)	.
.	.	.	.	.	.	.	.	.	.	.	.	.	.	.	.	.	.	.	.	.	.	.	.	.	.	.	.	.	.	.	16aa'\JJ	.
4A\	[	.	2A\	-na	2d\	-na	.	2f#\	-na	.	2a/	-na	.	2dd\	-na	2ff#\	-na	.	8r	.	8r	.	8r	.	2ff# 2dd\	.	2A\	[	2ff# 2dd\	.	16ff#'\LL	.
.	.	.	.	.	.	.	.	.	.	.	.	.	.	.	.	.	.	.	.	.	.	.	.	.	.	.	.	.	.	.	(>16ddd\	.
.	.	.	.	.	.	.	.	.	.	.	.	.	.	.	.	.	.	.	8a\L	.	8dd\L	.	8ff#\L	.	.	.	.	.	.	.	16aa\)	.
.	.	.	.	.	.	.	.	.	.	.	.	.	.	.	.	.	.	.	.	.	.	.	.	.	.	.	.	.	.	.	16ff#'\JJ	.
4r	.	.	.	.	.	.	.	.	.	.	.	.	.	.	.	.	.	.	8a\	.	8dd\	.	8ff#\	.	.	.	.	.	.	.	16dd'\LL	.
.	.	.	.	.	.	.	.	.	.	.	.	.	.	.	.	.	.	.	.	.	.	.	.	.	.	.	.	.	.	.	(>16aa\	.
!	!LO:DY:b	!	!	!	!	!	!LO:DY:b	!	!	!LO:DY:b	!	!	!LO:DY:b	!	!	!	!	!	!	!	!	!	!	!	!	!	!	!	!	!	!	!
.	ff	.	.	.	.	.	f	.	.	f	.	.	f	.	.	.	.	.	8a\J	.	8dd\J	.	8ff#\J	.	.	.	.	f	.	f	16ff#\)	.
.	.	.	.	.	.	.	.	.	.	.	.	.	.	.	.	.	.	.	.	.	.	.	.	.	.	.	.	.	.	.	16dd'\JJ	.
=39	=39	=39	=39	=39	=39	=39	=39	=39	=39	=39	=39	=39	=39	=39	=39	=39	=39	=39	=39	=39	=39	=39	=39	=39	=39	=39	=39	=39	=39	=39	=39	=39
*	*	*	*	*	*	*	*	*	*	*	*	*	*	*	*	*	*	*	*	*	*	*	*	*	*^	*	*	*	*^	*	*	*
!	!	!	!	!	!	!	!	!	!	!	!	!	!	!	!	!	!	!LO:DY:b:rj	!	!	!	!	!	!	!	!	!	!	!	!	!	!	!	!
4A\	.	1ryy	2.A\	glo-	(>4d\	glo-	.	2.e\	glo-	.	2.a/	glo-	.	(4dd\	glo-	2.ee\	glo-	f	8r	.	8r	.	8r	f	(>2.ee/	4dd\	.	2.A 2.AA\	.	(>2.ee/	4dd\	.	8ee'\L	.
.	.	.	.	.	.	.	.	.	.	.	.	.	.	.	.	.	.	.	8a\L	.	8dd'\L	.	8ee\L	.	.	.	.	.	.	.	.	.	(>8ddd\	.
4r	.	.	.	.	8c#X\L	.	.	.	.	.	.	.	.	8cc#X\L	.	.	.	.	8a\	.	(>8cc#X\	.	8ee\	.	.	8cc#X\L	.	.	.	.	8cc#X\L	.	8ccc#X\	.
.	.	.	.	.	8B\J	.	.	.	.	.	.	.	.	8b\J	.	.	.	.	8a\J	.	8b\J)	.	8ee\J	.	.	8b\J	.	.	.	.	8b\J	.	8bb\J)	.
8A\	.	.	.	.	4c#\)	.	.	.	.	.	.	.	.	4cc#\)	.	.	.	.	8r	.	8r	.	8r	.	.	4cc#\)	.	.	.	.	4cc#\)	.	4ccc#\	.
8r	.	.	.	.	.	.	.	.	.	.	.	.	.	.	.	.	.	.	8a\	.	8cc#\	.	8ee\	.	.	.	.	.	.	.	.	.	.	.
8AA/	.	.	4AA/	-ri-	4c#\	-ri-	.	4e\	-ri-	.	4a/	-ri-	.	4cc#\	-ri-	4ee\	-ri-	.	8r	.	8r	.	8r	.	4ryy	4ee\ 4cc#\	.	4A 4AA\	.	4ryy	4ee\ 4cc#\	.	4aaa\	.
8r	.	.	.	.	.	.	.	.	.	.	.	.	.	.	.	.	.	.	8a\	.	8cc#\	.	8ee\	.	.	.	.	.	.	.	.	.	.	.
!!LO:PB:g=original
=40	=40	=40	=40	=40	=40	=40	=40	=40	=40	=40	=40	=40	=40	=40	=40	=40	=40	=40	=40	=40	=40	=40	=40	=40	=40	=40	=40	=40	=40	=40	=40	=40	=40	=40
*	*	*	*	*	*	*	*	*	*	*	*	*	*	*	*	*	*	*	*	*	*	*	*	*	*	*	*	*^	*	*	*	*	*	*
!	!LO:DY:b:rj	!	!	!	!	!	!	!	!	!	!	!	!	!	!	!	!	!	!	!	!	!	!	!	!	!	!	!	!	!	!	!	!	!	!
8d\L	f	1ryy	8D\	-am	8d\	-am	.	8d\	-am	.	8d/	-am	.	8dd\	-am	8dd\	-am	.	8d'\L	.	8d/L	.	8dd'\L	.	8dd/	8dd\	.	2.d/yy	8dL 8D\	.	8dd/	8dd\	.	8ddd'\L	.
(>16c#X\L	.	.	8r	.	8r	.	.	8r	.	.	8r	.	.	8r	.	8r	.	.	(>16c#X\L	.	(<16c/L	.	(>16cc\L	.	8rb	8rb	.	.	(>16c\L	.	8rb	8rb	.	(>16ccc\L	.
*	*	*	*	*	*	*	*	*	*	*	*	*Xij	*	*	*Xij	*	*	*	*	*	*	*	*	*	*	*	*	*	*	*	*	*	*	*	*
16d\JJ)	.	.	.	.	.	.	.	.	.	.	.	.	.	.	.	.	.	.	16d\JJ)	.	16d/JJ)	.	16dd\JJ)	.	.	.	.	.	16d\JJ)	.	.	.	.	16ddd\JJ)	.
(>16G#X\LL	.	.	4r	.	4r	.	.	4r	.	.	4r	.	.	4r	.	4r	.	.	(<16G#X/LL	.	(<16e#X/LL	.	(>16ee#X\LL	.	4rb	4rb	.	.	(>16G#X\LL	.	4rb	4dd\yy	.	(>16eee#X\LL	.
16A\)	.	.	.	.	.	.	.	.	.	.	.	.	.	.	.	.	.	.	16A/)	.	16f#/)	.	16ff#\)	.	.	.	.	.	16A\)	.	.	.	.	16fff#\)	.
(>16E#X\	.	.	.	.	.	.	.	.	.	.	.	.	.	.	.	.	.	.	(<16E#X/	.	(<16g#X/	.	(>16gg#X\	.	.	.	.	.	(>16E#X\	.	.	.	mf	(>16ggg#X\	.
16F#\JJ)	.	.	.	.	.	.	.	.	.	.	.	.	.	.	.	.	.	.	16F#/JJ)	.	16a/JJ)	.	16aa\JJ)	.	.	.	.	.	16F#\JJ)	.	.	.	.	16aaa\JJ)	.
4D\	.	.	2r	.	2r	.	.	4r	.	.	2r	.	.	2r	.	2r	.	.	4D/	.	4dd\	.	4ddd\	.	4dd/	4dd\	.	.	4D\	.	4ff#\ 4dd\	2dd\yy	.	4ddd\	.
*	*	*	*	*	*	*	*	*	*Xij	*	*	*	*	*	*	*	*	*	*	*	*	*	*	*	*	*	*	*	*	*	*	*	*	*	*
4r	.	.	.	.	.	.	.	4d\	qui	.	.	.	.	.	.	.	.	.	4r	.	4r	.	4r	.	4rb	4rb	.	4d/	4rD	.	4rb	.	.	4r	.
*	*	*	*	*	*	*	*	*	*	*	*	*	*	*	*	*	*	*	*	*	*	*	*	*	*v	*v	*	*	*	*	*v	*v	*	*	*
=41	=41	=41	=41	=41	=41	=41	=41	=41	=41	=41	=41	=41	=41	=41	=41	=41	=41	=41	=41	=41	=41	=41	=41	=41	=41	=41	=41	=41	=41	=41	=41	=41	=41
*^	*	*	*	*	*	*	*	*	*	*	*	*	*	*	*	*	*	*	*	*	*	*	*	*	*	*	*	*	*	*	*	*	*
!	!	!	!	!	!	!	!	!	!	!	!	!	!	!	!	!	!	!	!	!	!	!	!	!	!	!	!	!	!	!LO:HP:a	!	!	!	!
2rD	2rD	.	1ryy	2r	.	1r	.	.	2e-X^>\	vi-	.	1r	.	.	1r	.	1r	.	.	1r	.	1r	.	1r	.	1r	.	(>2e-X/	2rGG	>	1r	.	1r	.
!LO:TX:a:i:t=Vcello col Fagotto 1mo	!	!LO:DY:b	!	!	!	!	!	!	!	!	!	!	!	!	!	!	!	!	!	!	!	!	!	!	!	!	!	!	!	!	!	!	!	!
4rD	4d/	p	.	4r	.	.	.	.	4d\	-tam	.	.	.	.	.	.	.	.	.	.	.	.	.	.	.	.	.	4d/)	4rGG	]	.	.	.	.
*v	*v	*	*	*	*	*	*	*	*	*	*	*	*	*	*	*	*	*	*	*	*	*	*	*	*	*	*	*	*	*	*	*	*	*
4D\	.	.	(>4D\	Si-	.	.	.	(>4d\	Si-	.	.	.	.	.	.	.	.	.	.	.	.	.	.	.	.	.	4d/	4D\	.	.	.	.	.
*	*	*	*	*	*	*	*	*	*	*	*	*	*	*	*	*	*	*	*	*	*	*	*	*	*	*	*	*	*	*	*	*	*
=42	=42	=42	=42	=42	=42	=42	=42	=42	=42	=42	=42	=42	=42	=42	=42	=42	=42	=42	=42	=42	=42	=42	=42	=42	=42	=42	=42	=42	=42	=42	=42	=42	=42
*	*	*	*	*	*	*	*	*	*	*	*	*	*	*	*	*	*	*	*	*	*	*	*	*	*^	*	*	*	*	*	*	*	*
*2\right	*	*	*	*	*	*	*	*	*	*	*	*	*	*	*	*	*	*	*	*	*	*	*	*	*	*	*	*	*	*	*	*	*	*
!	!	!	!	!	!	!	!	!	!	!	!	!	!	!	!	!	!	!	!	!	!	!	!	!	!	!	!	!LO:N:xstem	!	!	!	!	!	!
(>2E-X\	.	1ryy	2E-X\)	.	2r	.	.	2c\)	.	.	1r	.	.	1r	.	1r	.	.	2r	.	1r	.	1r	.	1raa	2rf	.	(>2c^>/	(>2E-X\	.	1r	.	1r	.
!	!	!	!	!	!	!	!	!	!	!	!	!	!	!	!	!	!	!	!	!	!	!	!	!	!LO:TX:b:i:t=2do	!	!	!	!	!	!	!	!	!
4D\)	.	.	4D\	-ne	4r	.	.	4B-X\	-ne	.	.	.	.	.	.	.	.	.	4r	.	.	.	.	.	.	4rc	.	4ryy	4B-X/) 4D\)	.	.	.	.	.
*	*	*	*	*	*	*Xij	*	*	*	*	*	*	*	*	*	*	*	*	*	*	*	*	*	*	*	*	*	*	*	*	*	*	*	*
4D\	.	.	(>4D\	ter-	(<4G/	ter-	.	(>4B-\	ter-	.	.	.	.	.	.	.	.	.	(<4G/	.	.	.	.	.	.	4g\	.	4ryy	4B-/ 4D\	.	.	.	.	.
*	*	*	*	*	*	*	*	*	*	*	*	*	*	*	*	*	*	*	*	*	*	*	*	*	*	*	*	*v	*v	*	*	*	*	*
=43	=43	=43	=43	=43	=43	=43	=43	=43	=43	=43	=43	=43	=43	=43	=43	=43	=43	=43	=43	=43	=43	=43	=43	=43	=43	=43	=43	=43	=43	=43	=43	=43	=43
8.C\L	.	1ryy	8.C/)	.	8.F#X/)	.	.	8.A\)	.	.	1r	.	.	1r	.	1r	.	.	8.F#X/L)	.	1r	.	1r	.	1rff	8.f#X\L	.	8.AL 8.C\	.	1r	.	1r	.
16C\Jk	.	.	16C/	-mi-	16F#/	-mi-	.	16A\	-mi-	.	.	.	.	.	.	.	.	.	16F#'/Jk	.	.	.	.	.	.	16f#\Jk	.	16AJk 16C\	.	.	.	.	.
4C\	.	.	4C/	-no	4F#/	-no	.	4A\	-no	.	.	.	.	.	.	.	.	.	4F#/	.	.	.	.	.	.	4f#\	.	4A 4C\	.	.	.	.	.
(<4BB-X\	.	.	(<4BB-X/	no-	2G/	no-	.	(>4G\	no-	.	.	.	.	.	.	.	.	.	2G/	.	.	.	.	.	.	2g\	.	(>4G 4BB-X\	.	.	.	.	.
4GG\)	.	.	4GG/)	.	.	.	.	4B-X\)	.	.	.	.	.	.	.	.	.	.	.	.	.	.	.	.	.	.	.	4B-X 4GG\)	.	.	.	.	.
=44	=44	=44	=44	=44	=44	=44	=44	=44	=44	=44	=44	=44	=44	=44	=44	=44	=44	=44	=44	=44	=44	=44	=44	=44	=44	=44	=44	=44	=44	=44	=44	=44	=44
*^	*	*	*	*	*	*	*	*	*	*	*	*	*	*	*	*	*	*	*	*	*	*	*	*	*	*	*	*	*	*	*	*	*
2.d/	2.D\	.	1ryy	2.D\	-bis	2.F#X/	-bis	.	2.d\	-bis	.	2r	.	.	2r	.	2r	.	.	2.F#/	.	2r	.	2r	.	2rff	2.f#X\	.	2.d 2.D\	.	2r	.	16r	.
.	.	.	.	.	.	.	.	.	.	.	.	.	.	.	.	.	.	.	.	.	.	.	.	.	.	.	.	.	.	.	.	.	16fff#\LL	.
.	.	.	.	.	.	.	.	.	.	.	.	.	.	.	.	.	.	.	.	.	.	.	.	.	.	.	.	.	.	.	.	.	16ddd\	.
.	.	.	.	.	.	.	.	.	.	.	.	.	.	.	.	.	.	.	.	.	.	.	.	.	.	.	.	.	.	.	.	.	16aa\JJ	.
.	.	.	.	.	.	.	.	.	.	.	.	.	.	.	.	.	.	.	.	.	.	.	.	.	.	.	.	.	.	.	.	.	16ff#\LL	.
!	!	!LO:DY:b	!	!	!	!	!	!	!	!	!	!	!	!	!	!	!	!	!	!	!	!	!	!	!	!	!	!	!	!	!	!	!	!
.	.	sf	.	.	.	.	.	.	.	.	.	.	.	.	.	.	.	.	.	.	.	.	.	.	.	.	.	.	.	sf	.	.	16dd\	.
.	.	.	.	.	.	.	.	.	.	.	.	.	.	.	.	.	.	.	.	.	.	.	.	.	.	.	.	.	.	.	.	.	16a\	.
.	.	.	.	.	.	.	.	.	.	.	.	.	.	.	.	.	.	.	.	.	.	.	.	.	.	.	.	.	.	.	.	.	16f#\JJ	.
.	.	.	.	.	.	.	.	.	.	.	.	4r	.	.	4r	.	4r	.	.	.	.	4r	.	4r	.	4rff	.	.	.	.	4r	.	4d/	.
*	*	*	*	*	*	*	*	*	*	*	*	*	*ij	*	*	*ij	*	*	*	*	*	*	*	*	*	*	*	*	*	*	*	*	*	*
8C/	8C\	.	.	(>4C/	do-	(<4F#/	do-	.	[>4d\	do-	.	4d/	do-	.	4f#/	do-	[>4dd\	do-	.	8r	.	8r	.	8r	.	4dd/	4f#X\	sf	4c 4C\	.	4dd 4f#X/	.	4r	.
!	!	!	!	!	!	!	!	!	!	!	!	!	!	!	!	!	!	!	!	!	!LO:DY:rj	!	!	!	!	!	!	!	!	!	!	!	!	!
8rD	8rD	.	.	.	.	.	.	.	.	.	.	.	.	.	.	.	.	.	.	8d\	sf	8f#X/	sf	8dd\	sf	.	.	.	.	.	.	.	.	.
*v	*v	*	*	*	*	*	*	*	*	*	*	*	*	*	*	*	*	*	*	*	*	*	*	*	*	*v	*v	*	*	*	*	*	*	*
=45	=45	=45	=45	=45	=45	=45	=45	=45	=45	=45	=45	=45	=45	=45	=45	=45	=45	=45	=45	=45	=45	=45	=45	=45	=45	=45	=45	=45	=45	=45	=45	=45
*	*	*	*	*	*	*	*	*	*	*	*	*	*	*	*	*	*	*	*	*	*	*	*	*	*	*	*	*	*^	*	*	*
!	!LO:DY:b:rj	!	!	!	!	!	!	!	!	!	!	!	!	!	!	!	!	!	!	!	!	!	!	!	!	!	!	!	!	!	!	!	!
4BB/	f	1ryy	2BB/)	-net	2G/)	.	.	2d\]	.	.	2d/	.	.	2g/	.	2dd\]	.	.	8r	.	8r	.	8r	.	2.dd 2.g\	.	2.B 2.BB\	.	2dd/	2.g\	.	1r	.
.	.	.	.	.	.	.	.	.	.	.	.	.	.	.	.	.	.	.	8d\L	.	8g/L	.	8dd\L	.	.	.	.	.	.	.	.	.	.
8r	.	.	.	.	.	.	.	.	.	.	.	.	.	.	.	.	.	.	8d\	.	8g/	.	8dd\	.	.	.	.	.	.	.	.	.	.
8BB/	.	.	.	.	.	.	.	.	.	.	.	.	.	.	.	.	.	.	8d\J	.	8g/J	.	8dd\J	.	.	.	.	.	.	.	.	.	.
8r	.	.	4BB/	.	4G/	-net	.	4g\	-net	.	4d/	-net	.	4g/	-net	4gg\	-net	.	8r	.	8r	.	8r	.	.	.	.	.	4gg/	.	.	.	.
8C/	.	.	.	.	.	.	.	.	.	.	.	.	.	.	.	.	.	.	8g\	.	8dd\	.	8gg\	.	.	.	.	.	.	.	.	.	.
4r	.	.	4C/	in	4c\	in	.	4e\	in	.	4g/	in	.	4cc\	in	4ee\	in	.	8r	.	8r	.	8r	.	4ee 4cc\	.	4c 4C\	.	4ee/	4cc\	.	.	.
.	.	.	.	.	.	.	.	.	.	.	.	.	.	.	.	.	.	.	8g\	.	8cc\	.	8ee\	.	.	.	.	.	.	.	.	.	.
*	*	*	*	*	*	*	*	*	*	*	*	*	*	*	*	*	*	*	*	*	*	*	*	*	*	*	*	*	*v	*v	*	*	*
=46	=46	=46	=46	=46	=46	=46	=46	=46	=46	=46	=46	=46	=46	=46	=46	=46	=46	=46	=46	=46	=46	=46	=46	=46	=46	=46	=46	=46	=46	=46	=46	=46
*	*	*	*	*	*	*	*	*	*	*	*	*	*	*	*	*	*	*	*	*	*	*	*	*	*^	*	*	*	*	*	*	*
4D\	.	1ryy	2.D\	pa-	(>4F#/	pa-	.	(>4A\	pa-	.	2.d/	pa-	.	(<4f#/	pa-	(>4a\	pa-	.	8r	.	8r	.	8r	.	2dd/	2dd\	.	(>4A 4F#\	.	(>4a 4f#/	.	1r	.
.	.	.	.	.	.	.	.	.	.	.	.	.	.	.	.	.	.	.	8d\L	.	8f#'/L	.	8a'\L	.	.	.	.	.	.	.	.	.	.
8r	.	.	.	.	8G/L	.	.	8B\L	.	.	.	.	.	8g/L	.	8b\L	.	.	8d\	.	(<8g/	.	(>8b\	.	.	.	.	8BL 8G\	.	8bL 8g/	.	.	.
8D\	.	.	.	.	8A/J	.	.	8c\J)	.	.	.	.	.	8a/J)	.	8cc\J)	.	.	8d\J	.	8a/J)	.	8cc\J)	.	.	.	.	8cJ 8A\	.	8ccJ 8a/	.	.	.
8r	.	.	.	.	4B\)	.	.	4d\	.	.	.	.	.	4b/	.	4dd\	.	.	8r	.	8r	.	8r	.	4dd/	4dd\	.	4d 4B\)	.	4dd 4b/)	.	.	.
8D#X\	.	.	.	.	.	.	.	.	.	.	.	.	.	.	.	.	.	.	8d\	.	8b/	.	8dd\	.	.	.	.	.	.	.	.	.	.
4r	.	.	4D#X\	-tri-	4A 4F#/	-tri-	.	4c 4A\	-tri-	.	4f#/	-tri-	.	4f#/	-tri-	4a/	-tri-	.	8r	.	8r	.	8r	.	4dd#X/	4dd#\	.	4A 4F#\	.	4a 4f#/	.	.	.
.	.	.	.	.	.	.	.	.	.	.	.	.	.	.	.	.	.	.	8d#X\	.	8a 8f#/	.	8cc 8a/	.	.	.	.	.	.	.	.	.	.
!!LO:PB:g=original
=47	=47	=47	=47	=47	=47	=47	=47	=47	=47	=47	=47	=47	=47	=47	=47	=47	=47	=47	=47	=47	=47	=47	=47	=47	=47	=47	=47	=47	=47	=47	=47	=47	=47
*	*	*	*	*	*	*	*	*	*	*	*	*	*	*	*	*	*	*	*	*	*	*	*	*	*	*	*	*	*	*^	*	*	*
*	*	*	*	*	*	*ij	*	*	*ij	*	*	*	*	*	*	*	*	*	*	*	*	*	*	*	*	*	*	*	*	*	*	*	*	*
4E\	.	1ryy	2E\	-a	2G/	-a	.	2B\	-a	.	2g/	-a	.	2g/	-a	2b\	-a	.	8r	.	8r	.	8r	.	2ee/	2ee\	.	2B 2G\	.	2b/	2g\	.	1r	.
.	.	.	.	.	.	.	.	.	.	.	.	.	.	.	.	.	.	.	8e\L	.	8g/L	.	8b\L	.	.	.	.	.	.	.	.	.	.	.
4r	.	.	.	.	.	.	.	.	.	.	.	.	.	.	.	.	.	.	8e\	.	8g/	.	8b\	.	.	.	.	.	.	.	.	.	.	.
.	.	.	.	.	.	.	.	.	.	.	.	.	.	.	.	.	.	.	8e\J	.	8g/J	.	8b\J	.	.	.	.	.	.	.	.	.	.	.
4C\	.	.	2C/	in	2G/	in	.	2e\	in	.	2g/	in	.	2cc\	in	2ee\	in	.	8r	.	8r	.	8r	.	2ee/	2cc\	.	2e 2c\	.	2ee/	2g\	.	.	.
.	.	.	.	.	.	.	.	.	.	.	.	.	.	.	.	.	.	.	8g\L	.	8b\L	.	8ee\L	.	.	.	.	.	.	.	.	.	.	.
4r	.	.	.	.	.	.	.	.	.	.	.	.	.	.	.	.	.	.	8g\	.	8b\	.	8ee\	.	.	.	.	.	.	.	.	.	.	.
.	.	.	.	.	.	.	.	.	.	.	.	.	.	.	.	.	.	.	8g\J	.	8b\J	.	8ee\J	.	.	.	.	.	.	.	.	.	.	.
=48	=48	=48	=48	=48	=48	=48	=48	=48	=48	=48	=48	=48	=48	=48	=48	=48	=48	=48	=48	=48	=48	=48	=48	=48	=48	=48	=48	=48	=48	=48	=48	=48	=48	=48
*	*	*	*	*	*	*	*	*	*	*	*	*	*	*	*	*	*	*	*	*	*	*	*	*	*	*	*	*^	*	*	*	*	*	*
4D\	.	1ryy	2.D\	pa-	8B\L	pa-	.	(>8d\L	pa-	.	2.d/	pa-	.	8b/L	pa-	(>8dd\L	pa-	.	8r	.	8b/L	.	(>8dd\L	.	2.dd/	2.dd\	.	8dL 8B\	4D\yy	.	(>8ddL 8b\	4ryy	.	1r	.
.	.	.	.	.	8A\J	.	.	8c\J	.	.	.	.	.	8a/J	.	8cc\J	.	.	8d\L	.	8a/J	.	8cc\J	.	.	.	.	8cJ 8A\	.	.	8ccJ 8a\)	.	.	.	.
4r	.	.	.	.	2G/	.	.	4B\	.	.	.	.	.	2g/	.	4b\	.	.	8d\	.	4g/	.	4b\)	.	.	.	.	4B/	2G\	.	4b/	2g\	.	.	.
.	.	.	.	.	.	.	.	.	.	.	.	.	.	.	.	.	.	.	8d\J	.	.	.	.	.	.	.	.	.	.	.	.	.	.	.	.
8D\	.	.	.	.	.	.	.	4A\)	.	.	.	.	.	.	.	4a\)	.	.	8r	.	8r	.	8r	.	.	.	.	4A/	.	.	4a/	.	.	.	.
8r	.	.	.	.	.	.	.	.	.	.	.	.	.	.	.	.	.	.	8d\	.	8g/	.	8a\	.	.	.	.	.	.	.	.	.	.	.	.
8D\	.	.	4D\	-tri-	4F#/	-tri-	.	4d\	-tri-	.	4d/	-tri-	.	4f#/	-tri-	4dd\	-tri-	.	8r	.	8r	.	8r	.	4dd/	4dd\	.	4d/	4F#\	.	4dd/	4f#\	.	.	.
8r	.	.	.	.	.	.	.	.	.	.	.	.	.	.	.	.	.	.	8a 8d\	.	8f#/	.	8dd\	.	.	.	.	.	.	.	.	.	.	.	.
=49	=49	=49	=49	=49	=49	=49	=49	=49	=49	=49	=49	=49	=49	=49	=49	=49	=49	=49	=49	=49	=49	=49	=49	=49	=49	=49	=49	=49	=49	=49	=49	=49	=49	=49	=49
4G\	.	1ryy	4G\	-a	4G/	-a	.	4G/	-a	.	4g/	-a	.	4g/	-a	4g/	-a	.	4g\	.	4g/	.	4g/	.	4g/	4g\	.	4G/	4G\	.	4g/	4g\	.	8g'/L	.
.	.	.	.	.	.	.	.	.	.	.	.	.	.	.	.	.	.	.	.	.	.	.	.	.	.	.	.	.	.	.	.	.	.	(<16f#/L	.
.	.	.	.	.	.	.	.	.	.	.	.	.	.	.	.	.	.	.	.	.	.	.	.	.	.	.	.	.	.	.	.	.	.	16g/JJ)	.
4r	.	.	4r	.	4r	.	.	4r	.	.	4r	.	.	4r	.	4r	.	.	4r	.	4r	.	4r	.	4rb	4rb	.	4rD	4rD	.	4rb	4rb	.	(>16a#X\LL	.
.	.	.	.	.	.	.	.	.	.	.	.	.	.	.	.	.	.	.	.	.	.	.	.	.	.	.	.	.	.	.	.	.	.	16b\)	.
.	.	.	.	.	.	.	.	.	.	.	.	.	.	.	.	.	.	.	.	.	.	.	.	.	.	.	.	.	.	.	.	.	.	(>16cc#X\	.
.	.	.	.	.	.	.	.	.	.	.	.	.	.	.	.	.	.	.	.	.	.	.	.	.	.	.	.	.	.	.	.	.	.	16dd\JJ)	.
2r	.	.	2r	.	2r	.	.	2r	.	.	2r	.	.	2r	.	2r	.	.	2r	.	2r	.	2r	.	2rb	2rb	.	2rD	2rD	.	2rb	2rb	.	8gg'\L	.
.	.	.	.	.	.	.	.	.	.	.	.	.	.	.	.	.	.	.	.	.	.	.	.	.	.	.	.	.	.	.	.	.	.	(>16ff#\L	.
.	.	.	.	.	.	.	.	.	.	.	.	.	.	.	.	.	.	.	.	.	.	.	.	.	.	.	.	.	.	.	.	.	.	16gg\JJ)	.
.	.	.	.	.	.	.	.	.	.	.	.	.	.	.	.	.	.	.	.	.	.	.	.	.	.	.	.	.	.	.	.	.	.	(>16aa#X\LL	.
.	.	.	.	.	.	.	.	.	.	.	.	.	.	.	.	.	.	.	.	.	.	.	.	.	.	.	.	.	.	.	.	.	.	16bb\)	.
.	.	.	.	.	.	.	.	.	.	.	.	.	.	.	.	.	.	.	.	.	.	.	.	.	.	.	.	.	.	.	.	.	.	(>16ccc#X\	.
.	.	.	.	.	.	.	.	.	.	.	.	.	.	.	.	.	.	.	.	.	.	.	.	.	.	.	.	.	.	.	.	.	.	16ddd\JJ)	.
*	*	*	*	*	*	*	*	*	*	*	*	*	*	*	*	*	*	*	*	*	*	*	*	*	*	*	*	*	*	*	*v	*v	*	*	*
=50	=50	=50	=50	=50	=50	=50	=50	=50	=50	=50	=50	=50	=50	=50	=50	=50	=50	=50	=50	=50	=50	=50	=50	=50	=50	=50	=50	=50	=50	=50	=50	=50	=50	=50
1r	.	1ryy	2r	.	2r	.	.	2r	.	.	2r	.	.	2r	.	2r	.	.	1r	.	1r	.	1r	.	2rb	2rb	.	1c	2rD	.	2r	.	4ggg\	.
.	.	.	.	.	.	.	.	.	.	.	.	.	.	.	.	.	.	.	.	.	.	.	.	.	.	.	p	.	.	p	.	p	4r	.
*	*	*	*	*	*	*	*	*	*	*	*	*	*	*2\right	*	*	*	*	*	*	*	*	*	*	*	*	*	*	*	*	*	*	*	*
.	.	.	2C/	a-	2c\	a-	.	2e\	a-	.	2g/	a-	.	2cc\	a-	(>2ee\	a-	.	.	.	.	.	.	.	2ee/	2g\	.	.	2C\	.	2ee 2cc\	.	2r	.
*	*	*	*	*	*	*	*	*	*	*	*	*	*	*	*	*	*	*	*	*	*	*	*	*	*v	*v	*	*	*	*	*	*	*	*
*	*	*	*	*	*	*	*	*	*	*	*	*	*	*	*	*	*	*	*	*	*	*	*	*	*	*	*v	*v	*	*	*	*	*
=51	=51	=51	=51	=51	=51	=51	=51	=51	=51	=51	=51	=51	=51	=51	=51	=51	=51	=51	=51	=51	=51	=51	=51	=51	=51	=51	=51	=51	=51	=51	=51	=51
*	*	*	*	*	*	*	*	*	*	*	*	*	*	*	*	*	*	*	*	*	*	*	*	*	*	*	*	*	*	*	*tuplet	*
!	!	!	!	!	!	!	!	!	!	!	!	!	!	!	!	!	!	!LO:HP:a	!	!	!	!	!	!	!	!	!	!	!	!	!	!
1r	.	1ryy	1C	.	1c	.	.	1e	.	.	1g	.	.	1cc	.	1ee)	.	<[	1r	.	1r	.	1r	.	1ee 1g	.	1c 1C	.	1ee 1cc	.	8r	.
!	!	!	!	!	!	!	!	!	!	!	!	!	!	!	!	!	!	!	!	!	!	!	!	!	!	!	!	!	!	!	!LO:TUP:a	!
.	.	.	.	.	.	.	.	.	.	.	.	.	.	.	.	.	.	.	.	.	.	.	.	.	.	.	.	.	.	.	24ggg'\LL	.
.	.	.	.	.	.	.	.	.	.	.	.	.	.	.	.	.	.	.	.	.	.	.	.	.	.	.	.	.	.	.	24eee'\	.
.	.	.	.	.	.	.	.	.	.	.	.	.	.	.	.	.	.	.	.	.	.	.	.	.	.	.	.	.	.	.	24ccc'\JJ	.
.	.	.	.	.	.	.	.	.	.	.	.	.	.	.	.	.	.	.	.	.	.	.	.	.	.	.	.	.	.	.	8gg'\L	.
!	!	!	!	!	!	!	!	!	!	!	!	!	!	!	!	!	!	!	!	!	!	!	!	!	!	!	!	!	!	!	!LO:TUP:a	!
.	.	.	.	.	.	.	.	.	.	.	.	.	.	.	.	.	.	.	.	.	.	.	.	.	.	.	.	.	.	.	24eee'\L	.
.	.	.	.	.	.	.	.	.	.	.	.	.	.	.	.	.	.	.	.	.	.	.	.	.	.	.	.	.	.	.	24ccc'\	.
.	.	.	.	.	.	.	.	.	.	.	.	.	.	.	.	.	.	.	.	.	.	.	.	.	.	.	.	.	.	.	24gg'\JJ	.
.	.	.	.	.	.	.	.	.	.	.	.	.	.	.	.	.	.	.	.	.	.	.	.	.	.	.	.	.	.	.	8ee'\L	.
!	!	!	!	!	!	!	!	!	!	!	!	!	!	!	!	!	!	!	!	!	!	!	!	!	!	!	!	!	!	!	!LO:TUP:a	!
.	.	.	.	.	.	.	.	.	.	.	.	.	.	.	.	.	.	.	.	.	.	.	.	.	.	.	.	.	.	.	24ccc'\L	.
.	.	.	.	.	.	.	.	.	.	.	.	.	.	.	.	.	.	.	.	.	.	.	.	.	.	.	.	.	.	.	24gg'\	.
.	.	.	.	.	.	.	.	.	.	.	.	.	.	.	.	.	.	.	.	.	.	.	.	.	.	.	.	.	.	.	24ee'\JJ	.
!	!LO:DY:b	!	!	!	!	!	!	!	!	!	!	!	!	!	!	!	!	!	!	!	!	!	!	!	!	!	!	!	!	!	!	!
.	ff	.	.	.	.	.	.	.	.	.	.	.	.	.	.	.	.	.	.	ff	.	ff	.	ff	.	ff	.	ff	.	ff	8cc'\L	.
.	.	.	.	.	.	.	.	.	.	.	.	.	.	.	.	.	.	.	.	.	.	.	.	.	.	.	.	.	.	.	8eee'\J	.
=52	=52	=52	=52	=52	=52	=52	=52	=52	=52	=52	=52	=52	=52	=52	=52	=52	=52	=52	=52	=52	=52	=52	=52	=52	=52	=52	=52	=52	=52	=52	=52	=52
*tremolo	*	*	*	*	*	*	*	*	*	*	*	*	*	*	*	*	*	*	*	*	*	*	*	*	*	*	*	*	*	*	*	*
32G\LLL	.	1ryy	1G;>	-men	1B;>	-men	.	1d;>	-men	.	1g;>	-men	.	1b;>	-men	1dd;>	-men	.	32g 32G\LLL	.	32b 32d/LLL	.	32gg 32b\LLL	.	1dd 1g;>	.	1B 1GG;>	.	1dd 1b;>	.	1eee;>	.
*	*	*	*	*	*	*	*	*	*Xij	*	*	*Xij	*	*	*Xij	*	*	*	*	*	*	*	*	*	*	*	*	*	*	*	*	*
32G\	.	.	.	.	.	.	.	.	.	.	.	.	.	.	.	.	.	.	32g 32G\	.	32b 32d/	.	32gg 32b\	.	.	.	.	.	.	.	.	.
32G\	.	.	.	.	.	.	.	.	.	.	.	.	.	.	.	.	.	.	32g 32G\	.	32b 32d/	.	32gg 32b\	.	.	.	.	.	.	.	.	.
32G\	.	.	.	.	.	.	.	.	.	.	.	.	.	.	.	.	.	.	32g 32G\	.	32b 32d/	.	32gg 32b\	.	.	.	.	.	.	.	.	.
32G\	.	.	.	.	.	.	.	.	.	.	.	.	.	.	.	.	.	.	32g 32G\	.	32b 32d/	.	32gg 32b\	.	.	.	.	.	.	.	.	.
32G\	.	.	.	.	.	.	.	.	.	.	.	.	.	.	.	.	.	.	32g 32G\	.	32b 32d/	.	32gg 32b\	.	.	.	.	.	.	.	.	.
32G\	.	.	.	.	.	.	.	.	.	.	.	.	.	.	.	.	.	.	32g 32G\	.	32b 32d/	.	32gg 32b\	.	.	.	.	.	.	.	.	.
32G\	.	.	.	.	.	.	.	.	.	.	.	.	.	.	.	.	.	.	32g 32G\	.	32b 32d/	.	32gg 32b\	.	.	.	.	.	.	.	.	.
32G\	.	.	.	.	.	.	.	.	.	.	.	.	.	.	.	.	.	.	32g 32G\	.	32b 32d/	.	32gg 32b\	.	.	.	.	.	.	.	.	.
32G\	.	.	.	.	.	.	.	.	.	.	.	.	.	.	.	.	.	.	32g 32G\	.	32b 32d/	.	32gg 32b\	.	.	.	.	.	.	.	.	.
32G\	.	.	.	.	.	.	.	.	.	.	.	.	.	.	.	.	.	.	32g 32G\	.	32b 32d/	.	32gg 32b\	.	.	.	.	.	.	.	.	.
32G\	.	.	.	.	.	.	.	.	.	.	.	.	.	.	.	.	.	.	32g 32G\	.	32b 32d/	.	32gg 32b\	.	.	.	.	.	.	.	.	.
32G\	.	.	.	.	.	.	.	.	.	.	.	.	.	.	.	.	.	.	32g 32G\	.	32b 32d/	.	32gg 32b\	.	.	.	.	.	.	.	.	.
32G\	.	.	.	.	.	.	.	.	.	.	.	.	.	.	.	.	.	.	32g 32G\	.	32b 32d/	.	32gg 32b\	.	.	.	.	.	.	.	.	.
32G\	.	.	.	.	.	.	.	.	.	.	.	.	.	.	.	.	.	.	32g 32G\	.	32b 32d/	.	32gg 32b\	.	.	.	.	.	.	.	.	.
32G\JJJ	.	.	.	.	.	.	.	.	.	.	.	.	.	.	.	.	.	.	32g 32G\JJJ	.	32b 32d/JJJ	.	32gg 32b\JJJ	.	.	.	.	.	.	.	.	.
*	*	*	*	*	*	*	*	*	*	*	*	*	*	*	*	*	*	*	*	*	*	*	*Xtremolo	*	*	*	*	*	*	*	*	*
*	*	*	*	*	*	*	*	*	*	*	*	*	*	*	*	*	*	*	*	*	*Xtremolo	*	*	*	*	*	*	*	*	*	*	*
*	*	*	*	*	*	*	*	*	*	*	*	*	*	*	*	*	*	*	*Xtremolo	*	*	*	*	*	*	*	*	*	*	*	*	*
*Xtremolo	*	*	*	*	*	*	*	*	*	*	*	*	*	*	*	*	*	*	*	*	*	*	*	*	*	*	*	*	*	*	*	*
2G;>\	.	.	.	.	.	.	.	.	.	.	.	.	.	.	.	.	.	.	2g 2G;>\	.	2b 2d;>/	.	2gg 2b;>\	.	.	.	.	.	.	.	.	.
==	==	==	==	==	==	==	==	==	==	==	==	==	==	==	==	==	==	==	==	==	==	==	==	==	==	==	==	==	==	==	==	==
*-	*-	*-	*-	*-	*-	*-	*-	*-	*-	*-	*-	*-	*-	*-	*-	*-	*-	*-	*-	*-	*-	*-	*-	*-	*-	*-	*-	*-	*-	*-	*-	*-
!!!system-decoration: s1,s2,s3,s4{(s5,s6,s7)}s8,s9,s10,s11,s12,s13{(s14,s15)}
!!!RDF**kern: | = vertical stroke
!!!RDF**kern: > = above
!!!RDF**kern: < = below
!!!ENC: Mateusz Solarz
!!!END: 2020-10-08
!!!EED: Antoni Szymański
!!!EEV: 2022-02-22
!!!YEC: Copyright 2022 Narodowy Instytut Fryderyka Chopina (https://polishscores.org)
!!!YEM: License CC-BY-4.0 (https://creativecommons.org/licenses/by/4.0)
